; generated by Slic3r 1.0.1 on 2014-06-16 at 13:02:05

; layer_height = 0.2
; perimeters = 1
; top_solid_layers = 3
; bottom_solid_layers = 3
; fill_density = 0.4
; perimeter_speed = 30
; infill_speed = 60
; travel_speed = 130
; nozzle_diameter = 0.5
; filament_diameter = 3
; extrusion_multiplier = 1
; perimeters extrusion width = 0.50mm
; infill extrusion width = 1.02mm
; solid infill extrusion width = 0.85mm
; top infill extrusion width = 0.85mm
; first layer extrusion width = 0.40mm

G21 ; set units to millimeters
M107 ; disable fan
M104 S200 T0 ; set temperature
M104 S200 T1 ; set temperature
G28 ; home all axes
G1 Z5 F5000 ; lift nozzle

M109 S200 T0 ; wait for temperature to be reached
M109 S200 T1 ; wait for temperature to be reached
G90 ; use absolute coordinates
G92 E0 ; reset extrusion distance
M82 ; use absolute distances for extrusion
T0 ; change extruder
G92 E0 ; reset extrusion distance
G1 F1800.000 E-1.00000 ; retract
G92 E0 ; reset extrusion distance
G1 Z0.200 F7800.000 ; move to next layer (0)
G1 X46.430 Y57.160 F7800.000 ; move to first skirt point
G1 E1.00000 F1800.000 ; compensate retraction
G1 X47.540 Y56.570 E1.01499 F540.000 ; skirt
G1 X48.750 Y56.200 E1.03008 ; skirt
G1 X50.000 Y56.080 E1.04505 ; skirt
G1 X150.000 Y56.080 E2.23754 ; skirt
G1 X151.250 Y56.200 E2.25252 ; skirt
G1 X152.460 Y56.570 E2.26761 ; skirt
G1 X153.570 Y57.160 E2.28260 ; skirt
G1 X154.540 Y57.960 E2.29759 ; skirt
G1 X155.340 Y58.930 E2.31258 ; skirt
G1 X155.930 Y60.040 E2.32757 ; skirt
G1 X156.300 Y61.250 E2.34266 ; skirt
G1 X156.420 Y62.500 E2.35764 ; skirt
G1 X156.420 Y137.500 E3.25200 ; skirt
G1 X156.300 Y138.750 E3.26698 ; skirt
G1 X155.930 Y139.960 E3.28207 ; skirt
G1 X155.340 Y141.070 E3.29706 ; skirt
G1 X154.540 Y142.040 E3.31205 ; skirt
G1 X153.570 Y142.840 E3.32704 ; skirt
G1 X152.460 Y143.430 E3.34203 ; skirt
G1 X151.250 Y143.800 E3.35712 ; skirt
G1 X150.000 Y143.920 E3.37210 ; skirt
G1 X50.000 Y143.920 E4.56459 ; skirt
G1 X48.750 Y143.800 E4.57956 ; skirt
G1 X47.540 Y143.430 E4.59465 ; skirt
G1 X46.430 Y142.840 E4.60964 ; skirt
G1 X45.460 Y142.040 E4.62463 ; skirt
G1 X44.660 Y141.070 E4.63963 ; skirt
G1 X44.070 Y139.960 E4.65462 ; skirt
G1 X43.700 Y138.750 E4.66971 ; skirt
G1 X43.580 Y137.500 E4.68468 ; skirt
G1 X43.580 Y62.500 E5.57905 ; skirt
G1 X43.700 Y61.250 E5.59402 ; skirt
G1 X44.070 Y60.040 E5.60911 ; skirt
G1 X44.660 Y58.930 E5.62410 ; skirt
G1 X45.460 Y57.960 E5.63909 ; skirt
G1 X46.381 Y57.200 E5.65333 ; skirt
G1 F1800.000 E4.65333 ; retract
G92 E0 ; reset extrusion distance
G1 X50.200 Y62.700 F7800.000 ; move to first perimeter point
G1 E1.00000 F1800.000 ; compensate retraction
G1 X149.800 Y62.700 E2.18772 F378.000 ; perimeter
G1 X149.800 Y137.300 E3.07731 ; perimeter
G1 X50.200 Y137.300 E4.26503 ; perimeter
G1 X50.200 Y62.763 E5.15388 ; perimeter
G1 X50.516 Y137.004 F7800.000 ; move to first fill point
G1 X50.496 Y136.984 E5.15421 F1080.000 ; fill
G1 X50.496 Y136.388 E5.16133 ; fill
G1 X51.112 Y137.004 E5.17174 ; fill
G1 X51.708 Y137.004 E5.17885 ; fill
G1 X50.496 Y135.792 E5.19932 ; fill
G1 X50.496 Y135.195 E5.20644 ; fill
G1 X52.305 Y137.004 E5.23698 ; fill
G1 X52.901 Y137.004 E5.24410 ; fill
G1 X50.496 Y134.599 E5.28470 ; fill
G1 X50.496 Y134.002 E5.29182 ; fill
G1 X53.498 Y137.004 E5.34249 ; fill
G1 X54.094 Y137.004 E5.34961 ; fill
G1 X50.496 Y133.406 E5.41035 ; fill
G1 X50.496 Y132.809 E5.41746 ; fill
G1 X54.691 Y137.004 E5.48827 ; fill
G1 X55.287 Y137.004 E5.49539 ; fill
G1 X50.496 Y132.213 E5.57626 ; fill
G1 X50.496 Y131.616 E5.58337 ; fill
G1 X55.884 Y137.004 E5.67431 ; fill
G1 X56.480 Y137.004 E5.68143 ; fill
G1 X50.496 Y131.020 E5.78243 ; fill
G1 X50.496 Y130.423 E5.78955 ; fill
G1 X57.077 Y137.004 E5.90062 ; fill
G1 X57.673 Y137.004 E5.90774 ; fill
G1 X50.496 Y129.827 E6.02888 ; fill
G1 X50.496 Y129.230 E6.03600 ; fill
G1 X58.270 Y137.004 E6.16720 ; fill
G1 X58.866 Y137.004 E6.17432 ; fill
G1 X50.496 Y128.634 E6.31559 ; fill
G1 X50.496 Y128.037 E6.32270 ; fill
G1 X59.463 Y137.004 E6.47404 ; fill
G1 X60.059 Y137.004 E6.48116 ; fill
G1 X50.496 Y127.441 E6.64256 ; fill
G1 X50.496 Y126.844 E6.64968 ; fill
G1 X60.656 Y137.004 E6.82115 ; fill
G1 X61.252 Y137.004 E6.82827 ; fill
G1 X50.496 Y126.248 E7.00981 ; fill
G1 X50.496 Y125.651 E7.01692 ; fill
G1 X61.849 Y137.004 E7.20853 ; fill
G1 X62.445 Y137.004 E7.21564 ; fill
G1 X50.496 Y125.055 E7.41731 ; fill
G1 X50.496 Y124.458 E7.42443 ; fill
G1 X63.042 Y137.004 E7.63617 ; fill
G1 X63.638 Y137.004 E7.64329 ; fill
G1 X50.496 Y123.862 E7.86509 ; fill
G1 X50.496 Y123.266 E7.87221 ; fill
G1 X64.234 Y137.004 E8.10408 ; fill
G1 X64.831 Y137.004 E8.11120 ; fill
G1 X50.496 Y122.669 E8.35313 ; fill
G1 X50.496 Y122.073 E8.36025 ; fill
G1 X65.427 Y137.004 E8.61225 ; fill
G1 X66.024 Y137.004 E8.61937 ; fill
G1 X50.496 Y121.476 E8.88144 ; fill
G1 X50.496 Y120.880 E8.88856 ; fill
G1 X66.620 Y137.004 E9.16069 ; fill
G1 X67.217 Y137.004 E9.16781 ; fill
G1 X50.496 Y120.283 E9.45001 ; fill
G1 X50.496 Y119.687 E9.45713 ; fill
G1 X67.813 Y137.004 E9.74940 ; fill
G1 X68.410 Y137.004 E9.75652 ; fill
G1 X50.496 Y119.090 E10.05886 ; fill
G1 X50.496 Y118.494 E10.06597 ; fill
G1 X69.006 Y137.004 E10.37838 ; fill
G1 X69.603 Y137.004 E10.38549 ; fill
G1 X50.496 Y117.897 E10.70796 ; fill
G1 X50.496 Y117.301 E10.71508 ; fill
G1 X70.199 Y137.004 E11.04762 ; fill
G1 X70.796 Y137.004 E11.05473 ; fill
G1 X50.496 Y116.704 E11.39734 ; fill
G1 X50.496 Y116.108 E11.40445 ; fill
G1 X71.392 Y137.004 E11.75712 ; fill
G1 X71.989 Y137.004 E11.76424 ; fill
G1 X50.496 Y115.511 E12.12698 ; fill
G1 X50.496 Y114.915 E12.13410 ; fill
G1 X72.585 Y137.004 E12.50690 ; fill
G1 X73.182 Y137.004 E12.51402 ; fill
G1 X50.496 Y114.318 E12.89688 ; fill
G1 X50.496 Y113.722 E12.90400 ; fill
G1 X73.778 Y137.004 E13.29694 ; fill
G1 X74.375 Y137.004 E13.30406 ; fill
G1 X50.496 Y113.125 E13.70706 ; fill
G1 X50.496 Y112.529 E13.71417 ; fill
G1 X74.971 Y137.004 E14.12724 ; fill
G1 X75.568 Y137.004 E14.13436 ; fill
G1 X50.496 Y111.932 E14.55750 ; fill
G1 X50.496 Y111.336 E14.56461 ; fill
G1 X76.164 Y137.004 E14.99782 ; fill
G1 X76.760 Y137.004 E15.00493 ; fill
G1 X50.496 Y110.740 E15.44820 ; fill
G1 X50.496 Y110.143 E15.45532 ; fill
G1 X77.357 Y137.004 E15.90866 ; fill
G1 X77.953 Y137.004 E15.91577 ; fill
G1 X50.496 Y109.547 E16.37917 ; fill
G1 X50.496 Y108.950 E16.38629 ; fill
G1 X78.550 Y137.004 E16.85976 ; fill
G1 X79.146 Y137.004 E16.86688 ; fill
G1 X50.496 Y108.354 E17.35041 ; fill
G1 X50.496 Y107.757 E17.35753 ; fill
G1 X79.743 Y137.004 E17.85113 ; fill
G1 X80.339 Y137.004 E17.85825 ; fill
G1 X50.496 Y107.161 E18.36192 ; fill
G1 X50.496 Y106.564 E18.36904 ; fill
G1 X80.936 Y137.004 E18.88277 ; fill
G1 X81.532 Y137.004 E18.88989 ; fill
G1 X50.496 Y105.968 E19.41369 ; fill
G1 X50.496 Y105.371 E19.42081 ; fill
G1 X82.129 Y137.004 E19.95468 ; fill
G1 X82.725 Y137.004 E19.96179 ; fill
G1 X50.496 Y104.775 E20.50573 ; fill
G1 X50.496 Y104.178 E20.51285 ; fill
G1 X83.322 Y137.004 E21.06685 ; fill
G1 X83.918 Y137.004 E21.07396 ; fill
G1 X50.496 Y103.582 E21.63803 ; fill
G1 X50.496 Y102.985 E21.64515 ; fill
G1 X84.515 Y137.004 E22.21928 ; fill
G1 X85.111 Y137.004 E22.22640 ; fill
G1 X50.496 Y102.389 E22.81060 ; fill
G1 X50.496 Y101.792 E22.81772 ; fill
G1 X85.708 Y137.004 E23.41199 ; fill
G1 X86.304 Y137.004 E23.41911 ; fill
G1 X50.496 Y101.196 E24.02344 ; fill
G1 X50.496 Y100.599 E24.03056 ; fill
G1 X86.901 Y137.004 E24.64496 ; fill
G1 X87.497 Y137.004 E24.65208 ; fill
G1 X50.496 Y100.003 E25.27654 ; fill
G1 X50.496 Y99.406 E25.28366 ; fill
G1 X88.094 Y137.004 E25.91820 ; fill
G1 X88.690 Y137.004 E25.92531 ; fill
G1 X50.496 Y98.810 E26.56991 ; fill
G1 X50.496 Y98.214 E26.57703 ; fill
G1 X89.286 Y137.004 E27.23170 ; fill
G1 X89.883 Y137.004 E27.23882 ; fill
G1 X50.496 Y97.617 E27.90355 ; fill
G1 X50.496 Y97.021 E27.91067 ; fill
G1 X90.479 Y137.004 E28.58547 ; fill
G1 X91.076 Y137.004 E28.59259 ; fill
G1 X50.496 Y96.424 E29.27745 ; fill
G1 X50.496 Y95.828 E29.28457 ; fill
G1 X91.672 Y137.004 E29.97950 ; fill
G1 X92.269 Y137.004 E29.98662 ; fill
G1 X50.496 Y95.231 E30.69162 ; fill
G1 X50.496 Y94.635 E30.69874 ; fill
G1 X92.865 Y137.004 E31.41381 ; fill
G1 X93.462 Y137.004 E31.42093 ; fill
G1 X50.496 Y94.038 E32.14606 ; fill
G1 X50.496 Y93.442 E32.15318 ; fill
G1 X94.058 Y137.004 E32.88838 ; fill
G1 X94.655 Y137.004 E32.89549 ; fill
G1 X50.496 Y92.845 E33.64076 ; fill
G1 X50.496 Y92.249 E33.64788 ; fill
G1 X95.251 Y137.004 E34.40321 ; fill
G1 X95.848 Y137.004 E34.41033 ; fill
G1 X50.496 Y91.652 E35.17573 ; fill
G1 X50.496 Y91.056 E35.18285 ; fill
G1 X96.444 Y137.004 E35.95831 ; fill
G1 X97.041 Y137.004 E35.96543 ; fill
G1 X50.496 Y90.459 E36.75096 ; fill
G1 X50.496 Y89.863 E36.75808 ; fill
G1 X97.637 Y137.004 E37.55368 ; fill
G1 X98.234 Y137.004 E37.56080 ; fill
G1 X50.496 Y89.266 E38.36647 ; fill
G1 X50.496 Y88.670 E38.37358 ; fill
G1 X98.830 Y137.004 E39.18932 ; fill
G1 X99.427 Y137.004 E39.19643 ; fill
G1 X50.496 Y88.073 E40.02223 ; fill
G1 X50.496 Y87.477 E40.02935 ; fill
G1 X100.023 Y137.004 E40.86522 ; fill
G1 X100.619 Y137.004 E40.87234 ; fill
G1 X50.496 Y86.881 E41.71827 ; fill
G1 X50.496 Y86.284 E41.72539 ; fill
G1 X101.216 Y137.004 E42.58138 ; fill
G1 X101.812 Y137.004 E42.58850 ; fill
G1 X50.496 Y85.688 E43.45457 ; fill
G1 X50.496 Y85.091 E43.46169 ; fill
G1 X102.409 Y137.004 E44.33782 ; fill
G1 X103.005 Y137.004 E44.34494 ; fill
G1 X50.496 Y84.495 E45.23113 ; fill
G1 X50.496 Y83.898 E45.23825 ; fill
G1 X103.602 Y137.004 E46.13452 ; fill
G1 X104.198 Y137.004 E46.14164 ; fill
G1 X50.496 Y83.302 E47.04797 ; fill
G1 X50.496 Y82.705 E47.05509 ; fill
G1 X104.795 Y137.004 E47.97148 ; fill
G1 X105.391 Y137.004 E47.97860 ; fill
G1 X50.496 Y82.109 E48.90507 ; fill
G1 X50.496 Y81.512 E48.91219 ; fill
G1 X105.988 Y137.004 E49.84872 ; fill
G1 X106.584 Y137.004 E49.85584 ; fill
G1 X50.496 Y80.916 E50.80243 ; fill
G1 X50.496 Y80.319 E50.80955 ; fill
G1 X107.181 Y137.004 E51.76622 ; fill
G1 X107.777 Y137.004 E51.77334 ; fill
G1 X50.496 Y79.723 E52.74007 ; fill
G1 X50.496 Y79.126 E52.74719 ; fill
G1 X108.374 Y137.004 E53.72398 ; fill
G1 X108.970 Y137.004 E53.73110 ; fill
G1 X50.496 Y78.530 E54.71797 ; fill
G1 X50.496 Y77.933 E54.72508 ; fill
G1 X109.567 Y137.004 E55.72202 ; fill
G1 X110.163 Y137.004 E55.72913 ; fill
G1 X50.496 Y77.337 E56.73613 ; fill
G1 X50.496 Y76.740 E56.74325 ; fill
G1 X110.760 Y137.004 E57.76031 ; fill
G1 X111.356 Y137.004 E57.76743 ; fill
G1 X50.496 Y76.144 E58.79456 ; fill
G1 X50.496 Y75.547 E58.80168 ; fill
G1 X111.953 Y137.004 E59.83888 ; fill
G1 X112.549 Y137.004 E59.84600 ; fill
G1 X50.496 Y74.951 E60.89326 ; fill
G1 X50.496 Y74.355 E60.90038 ; fill
G1 X113.145 Y137.004 E61.95771 ; fill
G1 X113.742 Y137.004 E61.96483 ; fill
G1 X50.496 Y73.758 E63.03223 ; fill
G1 X50.496 Y73.162 E63.03934 ; fill
G1 X114.338 Y137.004 E64.11681 ; fill
G1 X114.935 Y137.004 E64.12393 ; fill
G1 X50.496 Y72.565 E65.21146 ; fill
G1 X50.496 Y71.969 E65.21858 ; fill
G1 X115.531 Y137.004 E66.31617 ; fill
G1 X116.128 Y137.004 E66.32329 ; fill
G1 X50.496 Y71.372 E67.43096 ; fill
G1 X50.496 Y70.776 E67.43807 ; fill
G1 X116.724 Y137.004 E68.55580 ; fill
G1 X117.321 Y137.004 E68.56292 ; fill
G1 X50.496 Y70.179 E69.69072 ; fill
G1 X50.496 Y69.583 E69.69784 ; fill
G1 X117.917 Y137.004 E70.83570 ; fill
G1 X118.514 Y137.004 E70.84282 ; fill
G1 X50.496 Y68.986 E71.99075 ; fill
G1 X50.496 Y68.390 E71.99787 ; fill
G1 X119.110 Y137.004 E73.15586 ; fill
G1 X119.707 Y137.004 E73.16298 ; fill
G1 X50.496 Y67.793 E74.33105 ; fill
G1 X50.496 Y67.197 E74.33816 ; fill
G1 X120.303 Y137.004 E75.51629 ; fill
G1 X120.900 Y137.004 E75.52341 ; fill
G1 X50.496 Y66.600 E76.71161 ; fill
G1 X50.496 Y66.004 E76.71873 ; fill
G1 X121.496 Y137.004 E77.91699 ; fill
G1 X122.093 Y137.004 E77.92411 ; fill
G1 X50.496 Y65.407 E79.13244 ; fill
G1 X50.496 Y64.811 E79.13956 ; fill
G1 X122.689 Y137.004 E80.35795 ; fill
G1 X123.286 Y137.004 E80.36507 ; fill
G1 X50.496 Y64.214 E81.59353 ; fill
G1 X50.496 Y63.618 E81.60065 ; fill
G1 X123.882 Y137.004 E82.83918 ; fill
G1 X124.479 Y137.004 E82.84630 ; fill
G1 X50.496 Y63.021 E84.09490 ; fill
G1 X51.066 Y62.996 E84.10171 ; fill
G1 X125.075 Y137.004 E85.35075 ; fill
G1 X125.671 Y137.004 E85.35787 ; fill
G1 X51.663 Y62.996 E86.60690 ; fill
G1 X52.259 Y62.996 E86.61402 ; fill
G1 X126.268 Y137.004 E87.86305 ; fill
G1 X126.864 Y137.004 E87.87017 ; fill
G1 X52.855 Y62.996 E89.11920 ; fill
G1 X53.452 Y62.996 E89.12632 ; fill
G1 X127.461 Y137.004 E90.37536 ; fill
G1 X128.057 Y137.004 E90.38248 ; fill
G1 X54.048 Y62.996 E91.63151 ; fill
G1 X54.645 Y62.996 E91.63863 ; fill
G1 X128.654 Y137.004 E92.88766 ; fill
G1 X129.250 Y137.004 E92.89478 ; fill
G1 X55.241 Y62.996 E94.14381 ; fill
G1 X55.838 Y62.996 E94.15093 ; fill
G1 X129.847 Y137.004 E95.39997 ; fill
G1 X130.443 Y137.004 E95.40708 ; fill
G1 X56.434 Y62.996 E96.65612 ; fill
G1 X57.031 Y62.996 E96.66324 ; fill
G1 X131.040 Y137.004 E97.91227 ; fill
G1 X131.636 Y137.004 E97.91939 ; fill
G1 X57.627 Y62.996 E99.16842 ; fill
G1 X58.224 Y62.996 E99.17554 ; fill
G1 X132.233 Y137.004 E100.42458 ; fill
G1 X132.829 Y137.004 E100.43169 ; fill
G1 X58.820 Y62.996 E101.68073 ; fill
G1 X59.417 Y62.996 E101.68785 ; fill
G1 X133.426 Y137.004 E102.93688 ; fill
G1 X134.022 Y137.004 E102.94400 ; fill
G1 X60.013 Y62.996 E104.19303 ; fill
G1 X60.610 Y62.996 E104.20015 ; fill
G1 X134.619 Y137.004 E105.44919 ; fill
G1 X135.215 Y137.004 E105.45630 ; fill
G1 X61.206 Y62.996 E106.70534 ; fill
G1 X61.803 Y62.996 E106.71246 ; fill
G1 X135.812 Y137.004 E107.96149 ; fill
G1 X136.408 Y137.004 E107.96861 ; fill
G1 X62.399 Y62.996 E109.21764 ; fill
G1 X62.996 Y62.996 E109.22476 ; fill
G1 X137.004 Y137.004 E110.47380 ; fill
G1 X137.601 Y137.004 E110.48091 ; fill
G1 X63.592 Y62.996 E111.72995 ; fill
G1 X64.189 Y62.996 E111.73707 ; fill
G1 X138.197 Y137.004 E112.98610 ; fill
G1 X138.794 Y137.004 E112.99322 ; fill
G1 X64.785 Y62.996 E114.24225 ; fill
G1 X65.381 Y62.996 E114.24937 ; fill
G1 X139.390 Y137.004 E115.49841 ; fill
G1 X139.987 Y137.004 E115.50552 ; fill
G1 X65.978 Y62.996 E116.75456 ; fill
G1 X66.574 Y62.996 E116.76168 ; fill
G1 X140.583 Y137.004 E118.01071 ; fill
G1 X141.180 Y137.004 E118.01783 ; fill
G1 X67.171 Y62.996 E119.26686 ; fill
G1 X67.767 Y62.996 E119.27398 ; fill
G1 X141.776 Y137.004 E120.52302 ; fill
G1 X142.373 Y137.004 E120.53013 ; fill
G1 X68.364 Y62.996 E121.77917 ; fill
G1 X68.960 Y62.996 E121.78629 ; fill
G1 X142.969 Y137.004 E123.03532 ; fill
G1 X143.566 Y137.004 E123.04244 ; fill
G1 X69.557 Y62.996 E124.29147 ; fill
G1 X70.153 Y62.996 E124.29859 ; fill
G1 X144.162 Y137.004 E125.54762 ; fill
G1 X144.759 Y137.004 E125.55474 ; fill
G1 X70.750 Y62.996 E126.80378 ; fill
G1 X71.346 Y62.996 E126.81090 ; fill
G1 X145.355 Y137.004 E128.05993 ; fill
G1 X145.952 Y137.004 E128.06705 ; fill
G1 X71.943 Y62.996 E129.31608 ; fill
G1 X72.539 Y62.996 E129.32320 ; fill
G1 X146.548 Y137.004 E130.57223 ; fill
G1 X147.145 Y137.004 E130.57935 ; fill
G1 X73.136 Y62.996 E131.82839 ; fill
G1 X73.732 Y62.996 E131.83551 ; fill
G1 X147.741 Y137.004 E133.08454 ; fill
G1 X148.338 Y137.004 E133.09166 ; fill
G1 X74.329 Y62.996 E134.34069 ; fill
G1 X74.925 Y62.996 E134.34781 ; fill
G1 X148.934 Y137.004 E135.59684 ; fill
G1 X149.504 Y136.978 E135.60366 ; fill
G1 X75.522 Y62.996 E136.85225 ; fill
G1 X76.118 Y62.996 E136.85937 ; fill
G1 X149.504 Y136.382 E138.09790 ; fill
G1 X149.504 Y135.785 E138.10502 ; fill
G1 X76.715 Y62.996 E139.33348 ; fill
G1 X77.311 Y62.996 E139.34060 ; fill
G1 X149.504 Y135.189 E140.55899 ; fill
G1 X149.504 Y134.593 E140.56611 ; fill
G1 X77.907 Y62.996 E141.77444 ; fill
G1 X78.504 Y62.996 E141.78156 ; fill
G1 X149.504 Y133.996 E142.97982 ; fill
G1 X149.504 Y133.400 E142.98694 ; fill
G1 X79.100 Y62.996 E144.17513 ; fill
G1 X79.697 Y62.996 E144.18225 ; fill
G1 X149.504 Y132.803 E145.36038 ; fill
G1 X149.504 Y132.207 E145.36750 ; fill
G1 X80.293 Y62.996 E146.53556 ; fill
G1 X80.890 Y62.996 E146.54268 ; fill
G1 X149.504 Y131.610 E147.70068 ; fill
G1 X149.504 Y131.014 E147.70779 ; fill
G1 X81.486 Y62.996 E148.85572 ; fill
G1 X82.083 Y62.996 E148.86284 ; fill
