; generated by Slic3r 1.0.1 on 2014-06-16 at 21:17:13

; layer_height = 0.2
; perimeters = 1
; top_solid_layers = 3
; bottom_solid_layers = 3
; fill_density = 0.4
; perimeter_speed = 30
; infill_speed = 60
; travel_speed = 130
; nozzle_diameter = 0.2
; filament_diameter = 1.75
; extrusion_multiplier = .95
; perimeters extrusion width = 0.20mm
; infill extrusion width = 0.21mm
; solid infill extrusion width = 0.21mm
; top infill extrusion width = 0.21mm
; first layer extrusion width = 0.40mm

G21 ; set units to millimeters
M107 ; disable fan
M104 S205 T0 ; set temperature
M104 S200 T1 ; set temperature

M109 S205 T0 ; wait for temperature to be reached
M109 S200 T1 ; wait for temperature to be reached
G90 ; use absolute coordinates
G92 E0 ; reset extrusion distance
M82 ; use absolute distances for extrusion
T0 ; change extruder
G92 E0 ; reset extrusion distance
G1 F1800.000 E-1.00000 ; retract
G1 Z1.200 F7800.000 ; move to next layer (0) and lift
G92 E0 ; reset extrusion distance
G1 X46.470 Y57.210 F7800.000 ; move to first skirt point
G1 Z0.200 F7800.000 ; restore layer Z
G1 E1.00000 F1800.000 ; compensate retraction
G1 X47.570 Y56.630 E1.03508 F540.000 ; skirt
G1 X48.760 Y56.270 E1.07014 ; skirt
G1 X50.000 Y56.140 E1.10531 ; skirt
G1 X150.000 Y56.140 E3.92599 ; skirt
G1 X151.240 Y56.270 E3.96115 ; skirt
G1 X152.430 Y56.630 E3.99622 ; skirt
G1 X153.530 Y57.210 E4.03130 ; skirt
G1 X154.500 Y58.000 E4.06658 ; skirt
G1 X155.290 Y58.970 E4.10187 ; skirt
G1 X155.870 Y60.070 E4.13695 ; skirt
G1 X156.230 Y61.260 E4.17202 ; skirt
G1 X156.360 Y62.500 E4.20718 ; skirt
G1 X156.360 Y137.500 E6.32269 ; skirt
G1 X156.230 Y138.740 E6.35786 ; skirt
G1 X155.870 Y139.930 E6.39292 ; skirt
G1 X155.290 Y141.030 E6.42800 ; skirt
G1 X154.500 Y142.000 E6.46329 ; skirt
G1 X153.530 Y142.790 E6.49857 ; skirt
G1 X152.430 Y143.370 E6.53365 ; skirt
G1 X151.240 Y143.730 E6.56872 ; skirt
G1 X150.000 Y143.860 E6.60389 ; skirt
G1 X50.000 Y143.860 E9.42456 ; skirt
G1 X48.760 Y143.730 E9.45973 ; skirt
G1 X47.570 Y143.370 E9.49480 ; skirt
G1 X46.470 Y142.790 E9.52987 ; skirt
G1 X45.500 Y142.000 E9.56516 ; skirt
G1 X44.710 Y141.030 E9.60045 ; skirt
G1 X44.130 Y139.930 E9.63552 ; skirt
G1 X43.770 Y138.740 E9.67059 ; skirt
G1 X43.640 Y137.500 E9.70576 ; skirt
G1 X43.640 Y62.500 E11.82126 ; skirt
G1 X43.770 Y61.260 E11.85643 ; skirt
G1 X44.130 Y60.070 E11.89150 ; skirt
G1 X44.710 Y58.970 E11.92658 ; skirt
G1 X45.500 Y58.000 E11.96186 ; skirt
G1 X46.428 Y57.244 E11.99564 ; skirt
G1 X47.570 Y56.630 F6240.000 E11.64046 ; retract
G1 X48.760 Y56.270 F6240.000 E11.29976 ; retract
G1 X49.682 Y56.173 F6240.000 E11.04564 ; retract
G1 F1800.000 E10.99564 ; retract
G1 Z1.200 F7800.000 ; lift plate during travel
G92 E0 ; reset extrusion distance
G1 X50.200 Y62.700 F7800.000 ; move to first perimeter point
G1 Z0.200 F7800.000 ; restore layer Z
G1 E1.00000 F1800.000 ; compensate retraction
G1 X149.800 Y62.700 E3.80939 F378.000 ; perimeter
G1 X149.800 Y137.300 E5.91361 ; perimeter
G1 X50.200 Y137.300 E8.72300 ; perimeter
G1 X50.200 Y62.754 E10.82571 ; perimeter
G1 X50.469 Y137.051 F7800.000 ; move to first fill point
G1 X50.449 Y137.031 E10.82651 F1080.000 ; fill
G1 X50.449 Y136.525 E10.84083 ; fill
G1 X50.975 Y137.051 E10.86188 ; fill
G1 X51.482 Y137.051 E10.87620 ; fill
G1 X50.449 Y136.018 E10.91751 ; fill
G1 X50.449 Y135.512 E10.93183 ; fill
G1 X51.988 Y137.051 E10.99338 ; fill
G1 X52.494 Y137.051 E11.00770 ; fill
G1 X50.449 Y135.006 E11.08951 ; fill
G1 X50.449 Y134.499 E11.10383 ; fill
G1 X53.001 Y137.051 E11.20588 ; fill
G1 X53.507 Y137.051 E11.22020 ; fill
G1 X50.449 Y133.993 E11.34251 ; fill
G1 X50.449 Y133.487 E11.35683 ; fill
G1 X54.013 Y137.051 E11.49939 ; fill
G1 X54.520 Y137.051 E11.51371 ; fill
G1 X50.449 Y132.980 E11.67652 ; fill
G1 X50.449 Y132.474 E11.69084 ; fill
G1 X55.026 Y137.051 E11.87390 ; fill
G1 X55.532 Y137.051 E11.88822 ; fill
G1 X50.449 Y131.968 E12.09154 ; fill
G1 X50.449 Y131.462 E12.10586 ; fill
G1 X56.038 Y137.051 E12.32942 ; fill
G1 X56.545 Y137.051 E12.34374 ; fill
G1 X50.449 Y130.955 E12.58756 ; fill
G1 X50.449 Y130.449 E12.60188 ; fill
G1 X57.051 Y137.051 E12.86595 ; fill
G1 X57.557 Y137.051 E12.88027 ; fill
G1 X50.449 Y129.943 E13.16459 ; fill
G1 X50.449 Y129.436 E13.17891 ; fill
G1 X58.064 Y137.051 E13.48348 ; fill
G1 X58.570 Y137.051 E13.49780 ; fill
G1 X50.449 Y128.930 E13.82262 ; fill
G1 X50.449 Y128.424 E13.83694 ; fill
G1 X59.076 Y137.051 E14.18201 ; fill
G1 X59.583 Y137.051 E14.19633 ; fill
G1 X50.449 Y127.917 E14.56166 ; fill
G1 X50.449 Y127.411 E14.57598 ; fill
G1 X60.089 Y137.051 E14.96156 ; fill
G1 X60.595 Y137.051 E14.97588 ; fill
G1 X50.449 Y126.905 E15.38170 ; fill
G1 X50.449 Y126.398 E15.39602 ; fill
G1 X61.102 Y137.051 E15.82210 ; fill
G1 X61.608 Y137.051 E15.83642 ; fill
G1 X50.449 Y125.892 E16.28275 ; fill
G1 X50.449 Y125.386 E16.29707 ; fill
G1 X62.114 Y137.051 E16.76365 ; fill
G1 X62.621 Y137.051 E16.77797 ; fill
G1 X50.449 Y124.879 E17.26481 ; fill
G1 X50.449 Y124.373 E17.27913 ; fill
G1 X63.127 Y137.051 E17.78621 ; fill
G1 X63.633 Y137.051 E17.80053 ; fill
G1 X50.449 Y123.867 E18.32787 ; fill
G1 X50.449 Y123.360 E18.34219 ; fill
G1 X64.140 Y137.051 E18.88978 ; fill
G1 X64.646 Y137.051 E18.90410 ; fill
G1 X50.449 Y122.854 E19.47194 ; fill
G1 X50.449 Y122.348 E19.48626 ; fill
G1 X65.152 Y137.051 E20.07435 ; fill
G1 X65.659 Y137.051 E20.08867 ; fill
G1 X50.449 Y121.841 E20.69701 ; fill
G1 X50.449 Y121.335 E20.71133 ; fill
G1 X66.165 Y137.051 E21.33992 ; fill
G1 X66.671 Y137.051 E21.35424 ; fill
G1 X50.449 Y120.829 E22.00308 ; fill
G1 X50.449 Y120.322 E22.01740 ; fill
G1 X67.178 Y137.051 E22.68650 ; fill
G1 X67.684 Y137.051 E22.70082 ; fill
G1 X50.449 Y119.816 E23.39017 ; fill
G1 X50.449 Y119.310 E23.40449 ; fill
G1 X68.190 Y137.051 E24.11409 ; fill
G1 X68.697 Y137.051 E24.12841 ; fill
G1 X50.449 Y118.803 E24.85826 ; fill
G1 X50.449 Y118.297 E24.87258 ; fill
G1 X69.203 Y137.051 E25.62268 ; fill
G1 X69.709 Y137.051 E25.63700 ; fill
G1 X50.449 Y117.791 E26.40735 ; fill
G1 X50.449 Y117.284 E26.42167 ; fill
G1 X70.216 Y137.051 E27.21228 ; fill
G1 X70.722 Y137.051 E27.22660 ; fill
G1 X50.449 Y116.778 E28.03745 ; fill
G1 X50.449 Y116.272 E28.05177 ; fill
G1 X71.228 Y137.051 E28.88288 ; fill
G1 X71.735 Y137.051 E28.89720 ; fill
G1 X50.449 Y115.765 E29.74856 ; fill
G1 X50.449 Y115.259 E29.76288 ; fill
G1 X72.241 Y137.051 E30.63449 ; fill
G1 X72.747 Y137.051 E30.64881 ; fill
G1 X50.449 Y114.753 E31.54067 ; fill
G1 X50.449 Y114.246 E31.55499 ; fill
G1 X73.254 Y137.051 E32.46710 ; fill
G1 X73.760 Y137.051 E32.48142 ; fill
G1 X50.449 Y113.740 E33.41378 ; fill
G1 X50.449 Y113.234 E33.42810 ; fill
G1 X74.266 Y137.051 E34.38072 ; fill
G1 X74.773 Y137.051 E34.39504 ; fill
G1 X50.449 Y112.727 E35.36791 ; fill
G1 X50.449 Y112.221 E35.38223 ; fill
G1 X75.279 Y137.051 E36.37534 ; fill
G1 X75.785 Y137.051 E36.38966 ; fill
G1 X50.449 Y111.715 E37.40303 ; fill
G1 X50.449 Y111.208 E37.41735 ; fill
G1 X76.292 Y137.051 E38.45098 ; fill
G1 X76.798 Y137.051 E38.46530 ; fill
G1 X50.449 Y110.702 E39.51917 ; fill
G1 X50.449 Y110.196 E39.53349 ; fill
G1 X77.304 Y137.051 E40.60761 ; fill
G1 X77.811 Y137.051 E40.62193 ; fill
G1 X50.449 Y109.689 E41.71631 ; fill
G1 X50.449 Y109.183 E41.73063 ; fill
G1 X78.317 Y137.051 E42.84525 ; fill
G1 X78.823 Y137.051 E42.85957 ; fill
G1 X50.449 Y108.677 E43.99445 ; fill
G1 X50.449 Y108.170 E44.00877 ; fill
G1 X79.330 Y137.051 E45.16390 ; fill
G1 X79.836 Y137.051 E45.17822 ; fill
G1 X50.449 Y107.664 E46.35360 ; fill
G1 X50.449 Y107.158 E46.36792 ; fill
G1 X80.342 Y137.051 E47.56355 ; fill
G1 X80.849 Y137.051 E47.57787 ; fill
G1 X50.449 Y106.651 E48.79376 ; fill
G1 X50.449 Y106.145 E48.80808 ; fill
G1 X81.355 Y137.051 E50.04421 ; fill
G1 X81.861 Y137.051 E50.05853 ; fill
G1 X50.449 Y105.639 E51.31492 ; fill
G1 X50.449 Y105.132 E51.32924 ; fill
G1 X82.368 Y137.051 E52.60588 ; fill
G1 X82.874 Y137.051 E52.62020 ; fill
G1 X50.449 Y104.626 E53.91709 ; fill
G1 X50.449 Y104.120 E53.93140 ; fill
G1 X83.380 Y137.051 E55.24855 ; fill
G1 X83.887 Y137.051 E55.26287 ; fill
G1 X50.449 Y103.613 E56.60026 ; fill
G1 X50.449 Y103.107 E56.61458 ; fill
G1 X84.393 Y137.051 E57.97222 ; fill
G1 X84.899 Y137.051 E57.98654 ; fill
G1 X50.449 Y102.601 E59.36444 ; fill
G1 X50.449 Y102.094 E59.37876 ; fill
G1 X85.406 Y137.051 E60.77690 ; fill
G1 X85.912 Y137.051 E60.79122 ; fill
G1 X50.449 Y101.588 E62.20962 ; fill
G1 X50.449 Y101.082 E62.22394 ; fill
G1 X86.418 Y137.051 E63.66259 ; fill
G1 X86.925 Y137.051 E63.67691 ; fill
G1 X50.449 Y100.575 E65.13581 ; fill
G1 X50.449 Y100.069 E65.15013 ; fill
G1 X87.431 Y137.051 E66.62928 ; fill
G1 X87.937 Y137.051 E66.64360 ; fill
G1 X50.449 Y99.563 E68.14300 ; fill
G1 X50.449 Y99.056 E68.15732 ; fill
G1 X88.444 Y137.051 E69.67698 ; fill
G1 X88.950 Y137.051 E69.69130 ; fill
G1 X50.449 Y98.550 E71.23120 ; fill
G1 X50.449 Y98.044 E71.24552 ; fill
G1 X89.456 Y137.051 E72.80568 ; fill
G1 X89.963 Y137.051 E72.82000 ; fill
G1 X50.449 Y97.537 E74.40041 ; fill
G1 X50.449 Y97.031 E74.41473 ; fill
G1 X90.469 Y137.051 E76.01539 ; fill
G1 X90.975 Y137.051 E76.02971 ; fill
G1 X50.449 Y96.525 E77.65062 ; fill
G1 X50.449 Y96.018 E77.66494 ; fill
G1 X91.482 Y137.051 E79.30610 ; fill
G1 X91.988 Y137.051 E79.32042 ; fill
G1 X50.449 Y95.512 E80.98184 ; fill
G1 X50.449 Y95.006 E80.99616 ; fill
G1 X92.494 Y137.051 E82.67782 ; fill
G1 X93.001 Y137.051 E82.69214 ; fill
G1 X50.449 Y94.499 E84.39406 ; fill
G1 X50.449 Y93.993 E84.40838 ; fill
G1 X93.507 Y137.051 E86.13055 ; fill
G1 X94.013 Y137.051 E86.14487 ; fill
G1 X50.449 Y93.487 E87.88729 ; fill
G1 X50.449 Y92.980 E87.90161 ; fill
G1 X94.520 Y137.051 E89.66428 ; fill
G1 X95.026 Y137.051 E89.67860 ; fill
G1 X50.449 Y92.474 E91.46152 ; fill
G1 X50.449 Y91.968 E91.47584 ; fill
G1 X95.532 Y137.051 E93.27902 ; fill
G1 X96.039 Y137.051 E93.29334 ; fill
G1 X50.449 Y91.461 E95.11676 ; fill
G1 X50.449 Y90.955 E95.13108 ; fill
G1 X96.545 Y137.051 E96.97476 ; fill
G1 X97.051 Y137.051 E96.98908 ; fill
G1 X50.449 Y90.449 E98.85301 ; fill
G1 X50.449 Y89.942 E98.86733 ; fill
G1 X97.558 Y137.051 E100.75151 ; fill
G1 X98.064 Y137.051 E100.76583 ; fill
G1 X50.449 Y89.436 E102.67026 ; fill
G1 X50.449 Y88.930 E102.68458 ; fill
G1 X98.570 Y137.051 E104.60926 ; fill
G1 X99.077 Y137.051 E104.62358 ; fill
G1 X50.449 Y88.423 E106.56851 ; fill
G1 X50.449 Y87.917 E106.58283 ; fill
G1 X99.583 Y137.051 E108.54802 ; fill
G1 X100.089 Y137.051 E108.56234 ; fill
G1 X50.449 Y87.411 E110.54777 ; fill
G1 X50.449 Y86.904 E110.56209 ; fill
G1 X100.596 Y137.051 E112.56778 ; fill
G1 X101.102 Y137.051 E112.58210 ; fill
G1 X50.449 Y86.398 E114.60804 ; fill
G1 X50.449 Y85.892 E114.62236 ; fill
G1 X101.608 Y137.051 E116.66855 ; fill
G1 X102.115 Y137.051 E116.68287 ; fill
G1 X50.449 Y85.385 E118.74931 ; fill
G1 X50.449 Y84.879 E118.76363 ; fill
G1 X102.621 Y137.051 E120.85033 ; fill
G1 X103.127 Y137.051 E120.86465 ; fill
G1 X50.449 Y84.373 E122.97159 ; fill
G1 X50.449 Y83.866 E122.98591 ; fill
G1 X103.634 Y137.051 E125.11311 ; fill
G1 X104.140 Y137.051 E125.12743 ; fill
G1 X50.449 Y83.360 E127.27488 ; fill
G1 X50.449 Y82.854 E127.28920 ; fill
G1 X104.646 Y137.051 E129.45690 ; fill
G1 X105.153 Y137.051 E129.47122 ; fill
G1 X50.449 Y82.347 E131.65917 ; fill
G1 X50.449 Y81.841 E131.67349 ; fill
G1 X105.659 Y137.051 E133.88169 ; fill
G1 X106.165 Y137.051 E133.89601 ; fill
G1 X50.449 Y81.335 E136.12446 ; fill
G1 X50.449 Y80.829 E136.13878 ; fill
G1 X106.671 Y137.051 E138.38749 ; fill
G1 X107.178 Y137.051 E138.40181 ; fill
G1 X50.449 Y80.322 E140.67076 ; fill
G1 X50.449 Y79.816 E140.68508 ; fill
G1 X107.684 Y137.051 E142.97429 ; fill
G1 X108.190 Y137.051 E142.98861 ; fill
G1 X50.449 Y79.310 E145.29807 ; fill
G1 X50.449 Y78.803 E145.31239 ; fill
G1 X108.697 Y137.051 E147.64210 ; fill
G1 X109.203 Y137.051 E147.65642 ; fill
G1 X50.449 Y78.297 E150.00638 ; fill
G1 X50.449 Y77.791 E150.02070 ; fill
G1 X109.709 Y137.051 E152.39091 ; fill
G1 X110.216 Y137.051 E152.40523 ; fill
G1 X50.449 Y77.284 E154.79570 ; fill
G1 X50.449 Y76.778 E154.81002 ; fill
G1 X110.722 Y137.051 E157.22073 ; fill
G1 X111.228 Y137.051 E157.23505 ; fill
G1 X50.449 Y76.272 E159.66602 ; fill
G1 X50.449 Y75.765 E159.68034 ; fill
G1 X111.735 Y137.051 E162.13156 ; fill
G1 X112.241 Y137.051 E162.14588 ; fill
G1 X50.449 Y75.259 E164.61735 ; fill
G1 X50.449 Y74.753 E164.63167 ; fill
G1 X112.747 Y137.051 E167.12339 ; fill
G1 X113.254 Y137.051 E167.13771 ; fill
G1 X50.449 Y74.246 E169.64968 ; fill
G1 X50.449 Y73.740 E169.66400 ; fill
G1 X113.760 Y137.051 E172.19623 ; fill
G1 X114.266 Y137.051 E172.21055 ; fill
G1 X50.449 Y73.234 E174.76302 ; fill
G1 X50.449 Y72.727 E174.77734 ; fill
G1 X114.773 Y137.051 E177.35007 ; fill
G1 X115.279 Y137.051 E177.36439 ; fill
G1 X50.449 Y72.221 E179.95737 ; fill
G1 X50.449 Y71.715 E179.97169 ; fill
G1 X115.785 Y137.051 E182.58492 ; fill
G1 X116.292 Y137.051 E182.59924 ; fill
G1 X50.449 Y71.208 E185.23272 ; fill
G1 X50.449 Y70.702 E185.24704 ; fill
G1 X116.798 Y137.051 E187.90077 ; fill
G1 X117.304 Y137.051 E187.91509 ; fill
G1 X50.449 Y70.196 E190.58908 ; fill
G1 X50.449 Y69.689 E190.60340 ; fill
G1 X117.811 Y137.051 E193.29763 ; fill
G1 X118.317 Y137.051 E193.31195 ; fill
G1 X50.449 Y69.183 E196.02644 ; fill
G1 X50.449 Y68.677 E196.04076 ; fill
G1 X118.823 Y137.051 E198.77550 ; fill
G1 X119.330 Y137.051 E198.78982 ; fill
G1 X50.449 Y68.170 E201.54481 ; fill
G1 X50.449 Y67.664 E201.55913 ; fill
G1 X119.836 Y137.051 E204.33437 ; fill
G1 X120.342 Y137.051 E204.34869 ; fill
G1 X50.449 Y67.158 E207.14418 ; fill
G1 X50.449 Y66.651 E207.15850 ; fill
G1 X120.849 Y137.051 E209.97424 ; fill
G1 X121.355 Y137.051 E209.98856 ; fill
G1 X50.449 Y66.145 E212.82456 ; fill
G1 X50.449 Y65.639 E212.83888 ; fill
G1 X121.861 Y137.051 E215.69512 ; fill
G1 X122.368 Y137.051 E215.70944 ; fill
G1 X50.449 Y65.132 E218.58594 ; fill
G1 X50.449 Y64.626 E218.60026 ; fill
G1 X122.874 Y137.051 E221.49701 ; fill
G1 X123.380 Y137.051 E221.51133 ; fill
G1 X50.449 Y64.120 E224.42833 ; fill
G1 X50.449 Y63.613 E224.44265 ; fill
G1 X123.887 Y137.051 E227.37990 ; fill
G1 X124.393 Y137.051 E227.39422 ; fill
G1 X50.449 Y63.107 E230.35173 ; fill
G1 X50.797 Y62.949 E230.36254 ; fill
G1 X124.899 Y137.051 E233.32637 ; fill
G1 X125.406 Y137.051 E233.34069 ; fill
G1 X51.303 Y62.949 E236.30452 ; fill
G1 X51.810 Y62.949 E236.31884 ; fill
G1 X125.912 Y137.051 E239.28266 ; fill
G1 X126.418 Y137.051 E239.29698 ; fill
G1 X52.316 Y62.949 E242.26081 ; fill
G1 X52.822 Y62.949 E242.27513 ; fill
G1 X126.925 Y137.051 E245.23896 ; fill
G1 X127.431 Y137.051 E245.25328 ; fill
G1 X53.329 Y62.949 E248.21710 ; fill
G1 X53.835 Y62.949 E248.23142 ; fill
G1 X127.937 Y137.051 E251.19525 ; fill
G1 X128.444 Y137.051 E251.20957 ; fill
G1 X54.341 Y62.949 E254.17340 ; fill
G1 X54.848 Y62.949 E254.18772 ; fill
G1 X128.950 Y137.051 E257.15154 ; fill
G1 X129.456 Y137.051 E257.16586 ; fill
G1 X55.354 Y62.949 E260.12969 ; fill
G1 X55.860 Y62.949 E260.14401 ; fill
G1 X129.963 Y137.051 E263.10784 ; fill
G1 X130.469 Y137.051 E263.12216 ; fill
G1 X56.367 Y62.949 E266.08598 ; fill
G1 X56.873 Y62.949 E266.10030 ; fill
G1 X130.975 Y137.051 E269.06413 ; fill
G1 X131.482 Y137.051 E269.07845 ; fill
G1 X57.379 Y62.949 E272.04228 ; fill
G1 X57.886 Y62.949 E272.05660 ; fill
G1 X131.988 Y137.051 E275.02042 ; fill
G1 X132.494 Y137.051 E275.03474 ; fill
G1 X58.392 Y62.949 E277.99857 ; fill
G1 X58.898 Y62.949 E278.01289 ; fill
G1 X133.001 Y137.051 E280.97672 ; fill
G1 X133.507 Y137.051 E280.99104 ; fill
G1 X59.405 Y62.949 E283.95486 ; fill
G1 X59.911 Y62.949 E283.96918 ; fill
G1 X134.013 Y137.051 E286.93301 ; fill
G1 X134.520 Y137.051 E286.94733 ; fill
G1 X60.417 Y62.949 E289.91116 ; fill
G1 X60.924 Y62.949 E289.92548 ; fill
G1 X135.026 Y137.051 E292.88930 ; fill
G1 X135.532 Y137.051 E292.90362 ; fill
G1 X61.430 Y62.949 E295.86745 ; fill
G1 X61.936 Y62.949 E295.88177 ; fill
G1 X136.039 Y137.051 E298.84560 ; fill
G1 X136.545 Y137.051 E298.85992 ; fill
G1 X62.443 Y62.949 E301.82374 ; fill
G1 X62.949 Y62.949 E301.83806 ; fill
G1 X137.051 Y137.051 E304.80189 ; fill
G1 X137.558 Y137.051 E304.81621 ; fill
