; generated by Slic3r 1.0.1 on 2014-06-17 at 12:50:43

; layer_height = 0.2
; perimeters = 1
; top_solid_layers = 2
; bottom_solid_layers = 2
; fill_density = 0.5
; perimeter_speed = 30
; infill_speed = 50
; travel_speed = 130
; nozzle_diameter = 0.2
; filament_diameter = 1.75
; extrusion_multiplier = 1.2
; perimeters extrusion width = 0.20mm
; infill extrusion width = 0.21mm
; solid infill extrusion width = 0.21mm
; top infill extrusion width = 0.21mm
; first layer extrusion width = 0.40mm

G21 ; set units to millimeters
M107 ; disable fan
M104 S210 T0 ; set temperature
M104 S210 T1 ; set temperature
;CIRCUIT_POST_PROCESSOR: RETRACT_LENGTH = ,1,15
;CIRCUIT_POST_PROCESSOR: RETRACT_LENGTH_TOOLCHANGE = ,10,10
;CIRCUIT_POST_PROCESSOR: RETRACT_LIFT = ,1,1
;	Found 2 retract speeds: 1800, 180
;CIRCUIT_POST_PROCESSOR: RETRACT_SPEED = ,30,3
;CIRCUIT_POST_PROCESSOR: RETRACT_RESTART_EXTRA = ,0,100
;CIRCUIT_POST_PROCESSOR: RETRACT_RESTART_EXTRA_TOOLCHANGE = ,0,0
;	FOUND START OF G CODE
;CIRCUIT_POST_PROCESSOR: BEGIN G CODE
M109 S210 T0 ; wait for temperature to be reached
G90 ; use absolute coordinates
G92 E0 ; reset extrusion distance
M82 ; use absolute distances for extrusion
T0 ; change extruder
G92 E0 ; reset extrusion distance - PrusaCircuitConverterScript
G92 E0 ; reset extrusion distance
G1 F1800.000 E-1.00000 ; retract
; move to next layer: 0 detected. Resetting Extrusion distance.
G92 E0 ; reset extrusion distance - PrusaCircuitConverterScript
G1  Z1.200 F7800.000 ; move to next layer (0) and lift
G92 E0 ; reset extrusion distance
G1 X46.470 Y57.210 F7800.000 ; move to first skirt point
G1  Z0.200 F7800.000 ; restore layer Z
G1 E1.00000 F1800.000 ; compensate retraction
G1 X47.570 Y56.630 E1.04431 F540.000 ; skirt
G1 X48.760 Y56.270 E1.08860 ; skirt
G1 X50.000 Y56.140 E1.13303 ; skirt
G1 X150.000 Y56.140 E4.69598 ; skirt
G1 X151.240 Y56.270 E4.74040 ; skirt
G1 X152.430 Y56.630 E4.78470 ; skirt
G1 X153.530 Y57.210 E4.82901 ; skirt
G1 X154.500 Y58.000 E4.87358 ; skirt
G1 X155.290 Y58.970 E4.91815 ; skirt
G1 X155.870 Y60.070 E4.96246 ; skirt
G1 X156.230 Y61.260 E5.00676 ; skirt
G1 X156.360 Y62.500 E5.05118 ; skirt
G1 X156.360 Y137.500 E7.72340 ; skirt
G1 X156.230 Y138.740 E7.76782 ; skirt
G1 X155.870 Y139.930 E7.81212 ; skirt
G1 X155.290 Y141.030 E7.85642 ; skirt
G1 X154.500 Y142.000 E7.90100 ; skirt
G1 X153.530 Y142.790 E7.94557 ; skirt
G1 X152.430 Y143.370 E7.98987 ; skirt
G1 X151.240 Y143.730 E8.03417 ; skirt
G1 X150.000 Y143.860 E8.07859 ; skirt
G1 X50.000 Y143.860 E11.64155 ; skirt
G1 X48.760 Y143.730 E11.68597 ; skirt
G1 X47.570 Y143.370 E11.73027 ; skirt
G1 X46.470 Y142.790 E11.77458 ; skirt
G1 X45.500 Y142.000 E11.81915 ; skirt
G1 X44.710 Y141.030 E11.86372 ; skirt
G1 X44.130 Y139.930 E11.90803 ; skirt
G1 X43.770 Y138.740 E11.95232 ; skirt
G1 X43.640 Y137.500 E11.99675 ; skirt
G1 X43.640 Y62.500 E14.66896 ; skirt
G1 X43.770 Y61.260 E14.71339 ; skirt
G1 X44.130 Y60.070 E14.75768 ; skirt
G1 X44.710 Y58.970 E14.80199 ; skirt
G1 X45.500 Y58.000 E14.84656 ; skirt
G1 X46.428 Y57.244 E14.88923 ; skirt
G1 X47.570 Y56.630 F6240.000 E14.53405 ; retract
G1 X48.760 Y56.270 F6240.000 E14.19334 ; retract
G1 X49.682 Y56.173 F6240.000 E13.93923 ; retract
G1 F1800.000 E13.88923 ; retract
G1  Z1.200 F7800.000 ; lift plate during travel
G92 E0 ; reset extrusion distance
;G1 X50.200 Y62.700 F7800.000 ; move to first perimeter point
G1 X50.200 Y62.700 F7800.000 ; move to first 	; move to first (last) fill point
G1  Z0.200 F7800.000 ; restore layer Z
G1 E1.00000 F1800.000 ; compensate retraction
G1 X149.800 Y62.700 E4.54870 F378.000 ; perimeter
G1 X149.800 Y137.300 E7.20667 ; perimeter
G1 X50.200 Y137.300 E10.75537 ; perimeter
G1 X50.200 Y62.754 E13.41143 ; perimeter
;G1 X50.557 Y63.057 F7800.000 ; move to first perimeter point
G1 X50.557 Y63.057 F7800.000 ; move to first 	; move to first (last) fill point
G1 X149.443 Y63.057 E16.93469 F540.000 ; perimeter
G1 X149.443 Y136.943 E19.56721 ; perimeter
G1 X50.557 Y136.943 E23.09047 ; perimeter
G1 X50.557 Y63.111 E25.72108 ; perimeter
;G1 X50.826 Y136.694 F7800.000 ; move to first fill point
G1 X50.826 Y136.694 F7800.000 	; move to first (last) fill point
G1 X50.806 Y136.674 E25.72208 F900.000 ; fill
G1 X50.806 Y136.169 E25.74009 ; fill
G1 X51.331 Y136.694 E25.76655 ; fill
G1 X51.836 Y136.694 E25.78455 ; fill
G1 X50.806 Y135.664 E25.83647 ; fill
G1 X50.806 Y135.159 E25.85448 ; fill
G1 X52.341 Y136.694 E25.93186 ; fill
G1 X52.846 Y136.694 E25.94986 ; fill
G1 X50.806 Y134.654 E26.05269 ; fill
G1 X50.806 Y134.149 E26.07070 ; fill
G1 X53.351 Y136.694 E26.19899 ; fill
G1 X53.857 Y136.694 E26.21699 ; fill
G1 X50.806 Y133.643 E26.37074 ; fill
G1 X50.806 Y133.138 E26.38874 ; fill
G1 X54.362 Y136.694 E26.56795 ; fill
G1 X54.867 Y136.694 E26.58595 ; fill
G1 X50.806 Y132.633 E26.79062 ; fill
G1 X50.806 Y132.128 E26.80862 ; fill
G1 X55.372 Y136.694 E27.03875 ; fill
G1 X55.877 Y136.694 E27.05675 ; fill
G1 X50.806 Y131.623 E27.31233 ; fill
G1 X50.806 Y131.118 E27.33033 ; fill
G1 X56.382 Y136.694 E27.61137 ; fill
G1 X56.887 Y136.694 E27.62937 ; fill
G1 X50.806 Y130.613 E27.93587 ; fill
G1 X50.806 Y130.108 E27.95387 ; fill
G1 X57.392 Y136.694 E28.28582 ; fill
G1 X57.897 Y136.694 E28.30382 ; fill
G1 X50.806 Y129.603 E28.66123 ; fill
G1 X50.806 Y129.097 E28.67923 ; fill
G1 X58.403 Y136.694 E29.06210 ; fill
G1 X58.908 Y136.694 E29.08010 ; fill
G1 X50.806 Y128.592 E29.48843 ; fill
G1 X50.806 Y128.087 E29.50643 ; fill
G1 X59.413 Y136.694 E29.94021 ; fill
G1 X59.918 Y136.694 E29.95821 ; fill
G1 X50.806 Y127.582 E30.41745 ; fill
G1 X50.806 Y127.077 E30.43545 ; fill
G1 X60.423 Y136.694 E30.92015 ; fill
G1 X60.928 Y136.694 E30.93815 ; fill
G1 X50.806 Y126.572 E31.44831 ; fill
G1 X50.806 Y126.067 E31.46631 ; fill
G1 X61.433 Y136.694 E32.00192 ; fill
G1 X61.938 Y136.694 E32.01992 ; fill
G1 X50.806 Y125.562 E32.58099 ; fill
G1 X50.806 Y125.057 E32.59899 ; fill
G1 X62.443 Y136.694 E33.18552 ; fill
G1 X62.949 Y136.694 E33.20352 ; fill
G1 X50.806 Y124.551 E33.81550 ; fill
G1 X50.806 Y124.046 E33.83351 ; fill
G1 X63.454 Y136.694 E34.47095 ; fill
G1 X63.959 Y136.694 E34.48895 ; fill
G1 X50.806 Y123.541 E35.15185 ; fill
G1 X50.806 Y123.036 E35.16985 ; fill
G1 X64.464 Y136.694 E35.85820 ; fill
G1 X64.969 Y136.694 E35.87620 ; fill
G1 X50.806 Y122.531 E36.59002 ; fill
G1 X50.806 Y122.026 E36.60802 ; fill
G1 X65.474 Y136.694 E37.34729 ; fill
G1 X65.979 Y136.694 E37.36529 ; fill
G1 X50.806 Y121.521 E38.13002 ; fill
G1 X50.806 Y121.016 E38.14802 ; fill
G1 X66.484 Y136.694 E38.93821 ; fill
G1 X66.989 Y136.694 E38.95621 ; fill
G1 X50.806 Y120.511 E39.77185 ; fill
G1 X50.806 Y120.006 E39.78985 ; fill
G1 X67.494 Y136.694 E40.63095 ; fill
G1 X68.000 Y136.694 E40.64895 ; fill
G1 X50.806 Y119.500 E41.51551 ; fill
G1 X50.806 Y118.995 E41.53351 ; fill
G1 X68.505 Y136.694 E42.42552 ; fill
G1 X69.010 Y136.694 E42.44353 ; fill
G1 X50.806 Y118.490 E43.36100 ; fill
G1 X50.806 Y117.985 E43.37900 ; fill
G1 X69.515 Y136.694 E44.32193 ; fill
G1 X70.020 Y136.694 E44.33993 ; fill
G1 X50.806 Y117.480 E45.30832 ; fill
G1 X50.806 Y116.975 E45.32632 ; fill
G1 X70.525 Y136.694 E46.32016 ; fill
G1 X71.030 Y136.694 E46.33816 ; fill
G1 X50.806 Y116.470 E47.35746 ; fill
G1 X50.806 Y115.965 E47.37547 ; fill
G1 X71.535 Y136.694 E48.42022 ; fill
G1 X72.040 Y136.694 E48.43823 ; fill
G1 X50.806 Y115.460 E49.50844 ; fill
G1 X50.806 Y114.954 E49.52644 ; fill
G1 X72.546 Y136.694 E50.62212 ; fill
G1 X73.051 Y136.694 E50.64012 ; fill
G1 X50.806 Y114.449 E51.76125 ; fill
G1 X50.806 Y113.944 E51.77925 ; fill
G1 X73.556 Y136.694 E52.92584 ; fill
G1 X74.061 Y136.694 E52.94384 ; fill
G1 X50.806 Y113.439 E54.11588 ; fill
G1 X50.806 Y112.934 E54.13388 ; fill
G1 X74.566 Y136.694 E55.33139 ; fill
G1 X75.071 Y136.694 E55.34939 ; fill
G1 X50.806 Y112.429 E56.57235 ; fill
G1 X50.806 Y111.924 E56.59035 ; fill
G1 X75.576 Y136.694 E57.83877 ; fill
G1 X76.081 Y136.694 E57.85677 ; fill
G1 X50.806 Y111.419 E59.13064 ; fill
G1 X50.806 Y110.914 E59.14864 ; fill
G1 X76.586 Y136.694 E60.44798 ; fill
G1 X77.092 Y136.694 E60.46598 ; fill
G1 X50.806 Y110.408 E61.79077 ; fill
G1 X50.806 Y109.903 E61.80877 ; fill
G1 X77.597 Y136.694 E63.15902 ; fill
G1 X78.102 Y136.694 E63.17702 ; fill
G1 X50.806 Y109.398 E64.55272 ; fill
G1 X50.806 Y108.893 E64.57072 ; fill
G1 X78.607 Y136.694 E65.97188 ; fill
G1 X79.112 Y136.694 E65.98988 ; fill
G1 X50.806 Y108.388 E67.41650 ; fill
G1 X50.806 Y107.883 E67.43450 ; fill
G1 X79.617 Y136.694 E68.88658 ; fill
G1 X80.122 Y136.694 E68.90458 ; fill
G1 X50.806 Y107.378 E70.38212 ; fill
G1 X50.806 Y106.873 E70.40012 ; fill
G1 X80.627 Y136.694 E71.90311 ; fill
G1 X81.132 Y136.694 E71.92111 ; fill
G1 X50.806 Y106.368 E73.44956 ; fill
G1 X50.806 Y105.862 E73.46756 ; fill
G1 X81.637 Y136.694 E75.02146 ; fill
G1 X82.143 Y136.694 E75.03946 ; fill
G1 X50.806 Y105.357 E76.61883 ; fill
G1 X50.806 Y104.852 E76.63683 ; fill
G1 X82.648 Y136.694 E78.24165 ; fill
G1 X83.153 Y136.694 E78.25965 ; fill
G1 X50.806 Y104.347 E79.88993 ; fill
G1 X50.806 Y103.842 E79.90793 ; fill
G1 X83.658 Y136.694 E81.56366 ; fill
G1 X84.163 Y136.694 E81.58166 ; fill
G1 X50.806 Y103.337 E83.26286 ; fill
G1 X50.806 Y102.832 E83.28086 ; fill
G1 X84.668 Y136.694 E84.98751 ; fill
G1 X85.173 Y136.694 E85.00551 ; fill
G1 X50.806 Y102.327 E86.73761 ; fill
G1 X50.806 Y101.822 E86.75562 ; fill
G1 X85.678 Y136.694 E88.51318 ; fill
G1 X86.183 Y136.694 E88.53118 ; fill
G1 X50.806 Y101.317 E90.31420 ; fill
G1 X50.806 Y100.811 E90.33220 ; fill
G1 X86.689 Y136.694 E92.14068 ; fill
G1 X87.194 Y136.694 E92.15868 ; fill
G1 X50.806 Y100.306 E93.99262 ; fill
G1 X50.806 Y99.801 E94.01062 ; fill
G1 X87.699 Y136.694 E95.87001 ; fill
G1 X88.204 Y136.694 E95.88802 ; fill
G1 X50.806 Y99.296 E97.77287 ; fill
G1 X50.806 Y98.791 E97.79087 ; fill
G1 X88.709 Y136.694 E99.70118 ; fill
G1 X89.214 Y136.694 E99.71918 ; fill
G1 X50.806 Y98.286 E101.65494 ; fill
G1 X50.806 Y97.781 E101.67294 ; fill
G1 X89.719 Y136.694 E103.63417 ; fill
G1 X90.224 Y136.694 E103.65217 ; fill
G1 X50.806 Y97.276 E105.63885 ; fill
G1 X50.806 Y96.771 E105.65685 ; fill
G1 X90.729 Y136.694 E107.66899 ; fill
G1 X91.235 Y136.694 E107.68699 ; fill
G1 X50.806 Y96.265 E109.72458 ; fill
G1 X50.806 Y95.760 E109.74258 ; fill
G1 X91.740 Y136.694 E111.80564 ; fill
G1 X92.245 Y136.694 E111.82364 ; fill
G1 X50.806 Y95.255 E113.91215 ; fill
G1 X50.806 Y94.750 E113.93015 ; fill
G1 X92.750 Y136.694 E116.04411 ; fill
G1 X93.255 Y136.694 E116.06212 ; fill
G1 X50.806 Y94.245 E118.20154 ; fill
G1 X50.806 Y93.740 E118.21954 ; fill
G1 X93.760 Y136.694 E120.38442 ; fill
G1 X94.265 Y136.694 E120.40242 ; fill
G1 X50.806 Y93.235 E122.59276 ; fill
G1 X50.806 Y92.730 E122.61076 ; fill
G1 X94.770 Y136.694 E124.82656 ; fill
G1 X95.275 Y136.694 E124.84456 ; fill
G1 X50.806 Y92.225 E127.08581 ; fill
G1 X50.806 Y91.719 E127.10382 ; fill
G1 X95.780 Y136.694 E129.37053 ; fill
G1 X96.286 Y136.694 E129.38853 ; fill
G1 X50.806 Y91.214 E131.68070 ; fill
G1 X50.806 Y90.709 E131.69870 ; fill
G1 X96.791 Y136.694 E134.01632 ; fill
G1 X97.296 Y136.694 E134.03432 ; fill
G1 X50.806 Y90.204 E136.37741 ; fill
G1 X50.806 Y89.699 E136.39541 ; fill
G1 X97.801 Y136.694 E138.76395 ; fill
G1 X98.306 Y136.694 E138.78195 ; fill
G1 X50.806 Y89.194 E141.17595 ; fill
G1 X50.806 Y88.689 E141.19395 ; fill
G1 X98.811 Y136.694 E143.61340 ; fill
G1 X99.316 Y136.694 E143.63140 ; fill
G1 X50.806 Y88.184 E146.07632 ; fill
G1 X50.806 Y87.679 E146.09432 ; fill
G1 X99.821 Y136.694 E148.56469 ; fill
G1 X100.326 Y136.694 E148.58269 ; fill
G1 X50.806 Y87.174 E151.07852 ; fill
G1 X50.806 Y86.668 E151.09652 ; fill
G1 X100.832 Y136.694 E153.61780 ; fill
G1 X101.337 Y136.694 E153.63580 ; fill
G1 X50.806 Y86.163 E156.18254 ; fill
G1 X50.806 Y85.658 E156.20054 ; fill
G1 X101.842 Y136.694 E158.77274 ; fill
G1 X102.347 Y136.694 E158.79074 ; fill
G1 X50.806 Y85.153 E161.38840 ; fill
G1 X50.806 Y84.648 E161.40640 ; fill
G1 X102.852 Y136.694 E164.02952 ; fill
G1 X103.357 Y136.694 E164.04752 ; fill
G1 X50.806 Y84.143 E166.69609 ; fill
G1 X50.806 Y83.638 E166.71409 ; fill
G1 X103.862 Y136.694 E169.38812 ; fill
G1 X104.367 Y136.694 E169.40612 ; fill
G1 X50.806 Y83.133 E172.10560 ; fill
G1 X50.806 Y82.628 E172.12360 ; fill
G1 X104.872 Y136.694 E174.84855 ; fill
G1 X105.378 Y136.694 E174.86655 ; fill
G1 X50.806 Y82.122 E177.61695 ; fill
G1 X50.806 Y81.617 E177.63495 ; fill
G1 X105.883 Y136.694 E180.41081 ; fill
G1 X106.388 Y136.694 E180.42881 ; fill
G1 X50.806 Y81.112 E183.23012 ; fill
G1 X50.806 Y80.607 E183.24813 ; fill
G1 X106.893 Y136.694 E186.07490 ; fill
G1 X107.398 Y136.694 E186.09290 ; fill
G1 X50.806 Y80.102 E188.94513 ; fill
G1 X50.806 Y79.597 E188.96313 ; fill
G1 X107.903 Y136.694 E191.84082 ; fill
G1 X108.408 Y136.694 E191.85882 ; fill
G1 X50.806 Y79.092 E194.76196 ; fill
G1 X50.806 Y78.587 E194.77996 ; fill
G1 X108.913 Y136.694 E197.70856 ; fill
G1 X109.418 Y136.694 E197.72657 ; fill
G1 X50.806 Y78.082 E200.68062 ; fill
G1 X50.806 Y77.576 E200.69863 ; fill
G1 X109.924 Y136.694 E203.67814 ; fill
G1 X110.429 Y136.694 E203.69614 ; fill
G1 X50.806 Y77.071 E206.70112 ; fill
G1 X50.806 Y76.566 E206.71912 ; fill
G1 X110.934 Y136.694 E209.74955 ; fill
G1 X111.439 Y136.694 E209.76755 ; fill
G1 X50.806 Y76.061 E212.82344 ; fill
G1 X50.806 Y75.556 E212.84144 ; fill
G1 X111.944 Y136.694 E215.92279 ; fill
G1 X112.449 Y136.694 E215.94079 ; fill
G1 X50.806 Y75.051 E219.04759 ; fill
G1 X50.806 Y74.546 E219.06559 ; fill
G1 X112.954 Y136.694 E222.19785 ; fill
G1 X113.459 Y136.694 E222.21585 ; fill
G1 X50.806 Y74.041 E225.37357 ; fill
G1 X50.806 Y73.536 E225.39157 ; fill
G1 X113.964 Y136.694 E228.57475 ; fill
G1 X114.469 Y136.694 E228.59275 ; fill
G1 X50.806 Y73.031 E231.80138 ; fill
G1 X50.806 Y72.525 E231.81938 ; fill
G1 X114.975 Y136.694 E235.05347 ; fill
G1 X115.480 Y136.694 E235.07147 ; fill
G1 X50.806 Y72.020 E238.33102 ; fill
G1 X50.806 Y71.515 E238.34902 ; fill
G1 X115.985 Y136.694 E241.63402 ; fill
G1 X116.490 Y136.694 E241.65203 ; fill
G1 X50.806 Y71.010 E244.96249 ; fill
G1 X50.806 Y70.505 E244.98049 ; fill
G1 X116.995 Y136.694 E248.31641 ; fill
G1 X117.500 Y136.694 E248.33441 ; fill
G1 X50.806 Y70.000 E251.69578 ; fill
G1 X50.806 Y69.495 E251.71379 ; fill
G1 X118.005 Y136.694 E255.10062 ; fill
G1 X118.510 Y136.694 E255.11862 ; fill
G1 X50.806 Y68.990 E258.53091 ; fill
G1 X50.806 Y68.485 E258.54891 ; fill
G1 X119.015 Y136.694 E261.98666 ; fill
G1 X119.521 Y136.694 E262.00466 ; fill
G1 X50.806 Y67.979 E265.46787 ; fill
G1 X50.806 Y67.474 E265.48587 ; fill
G1 X120.026 Y136.694 E268.97453 ; fill
G1 X120.531 Y136.694 E268.99253 ; fill
G1 X50.806 Y66.969 E272.50665 ; fill
G1 X50.806 Y66.464 E272.52465 ; fill
G1 X121.036 Y136.694 E276.06423 ; fill
G1 X121.541 Y136.694 E276.08223 ; fill
G1 X50.806 Y65.959 E279.64727 ; fill
G1 X50.806 Y65.454 E279.66527 ; fill
G1 X122.046 Y136.694 E283.25576 ; fill
G1 X122.551 Y136.694 E283.27376 ; fill
G1 X50.806 Y64.949 E286.88971 ; fill
G1 X50.806 Y64.444 E286.90771 ; fill
G1 X123.056 Y136.694 E290.54912 ; fill
G1 X123.561 Y136.694 E290.56712 ; fill
G1 X50.806 Y63.939 E294.23399 ; fill
G1 X50.806 Y63.433 E294.25199 ; fill
G1 X124.067 Y136.694 E297.94431 ; fill
G1 X124.572 Y136.694 E297.96231 ; fill
G1 X51.184 Y63.306 E301.66106 ; fill
G1 X51.689 Y63.306 E301.67906 ; fill
G1 X125.077 Y136.694 E305.37781 ; fill
G1 X125.582 Y136.694 E305.39581 ; fill
G1 X52.194 Y63.306 E309.09456 ; fill
G1 X52.699 Y63.306 E309.11256 ; fill
G1 X126.087 Y136.694 E312.81131 ; fill
G1 X126.592 Y136.694 E312.82931 ; fill
G1 X53.204 Y63.306 E316.52806 ; fill
G1 X53.709 Y63.306 E316.54606 ; fill
G1 X127.097 Y136.694 E320.24481 ; fill
G1 X127.602 Y136.694 E320.26281 ; fill
G1 X54.214 Y63.306 E323.96156 ; fill
G1 X54.719 Y63.306 E323.97956 ; fill
G1 X128.107 Y136.694 E327.67831 ; fill
G1 X128.612 Y136.694 E327.69631 ; fill
G1 X55.224 Y63.306 E331.39506 ; fill
G1 X55.729 Y63.306 E331.41306 ; fill
G1 X129.118 Y136.694 E335.11181 ; fill
G1 X129.623 Y136.694 E335.12981 ; fill
G1 X56.235 Y63.306 E338.82856 ; fill
G1 X56.740 Y63.306 E338.84656 ; fill
G1 X130.128 Y136.694 E342.54531 ; fill
G1 X130.633 Y136.694 E342.56332 ; fill
