; generated by Slic3r 1.0.1 on 2014-06-17 at 00:55:18

; layer_height = 0.2
; perimeters = 1
; top_solid_layers = 3
; bottom_solid_layers = 3
; fill_density = 0.4
; perimeter_speed = 30
; infill_speed = 60
; travel_speed = 130
; nozzle_diameter = 0.2
; filament_diameter = 1.75
; extrusion_multiplier = .95
; perimeters extrusion width = 0.20mm
; infill extrusion width = 0.21mm
; solid infill extrusion width = 0.21mm
; top infill extrusion width = 0.21mm
; first layer extrusion width = 0.40mm

G21 ; set units to millimeters
M107 ; disable fan
M104 S205 T0 ; set temperature
M104 S200 T1 ; set temperature
;CIRCUIT_POST_PROCESSOR: RETRACT_LENGTH = ,1,15
;CIRCUIT_POST_PROCESSOR: RETRACT_LENGTH_TOOLCHANGE = ,10,10
;CIRCUIT_POST_PROCESSOR: RETRACT_LIFT = ,1,1
;CIRCUIT_POST_PROCESSOR: RETRACT_SPEED = ,30,3
;CIRCUIT_POST_PROCESSOR: RETRACT_RESTART_EXTRA = ,0,100
;CIRCUIT_POST_PROCESSOR: RETRACT_RESTART_EXTRA_TOOLCHANGE = ,0,0
;CIRCUIT_POST_PROCESSOR: BEGIN G CODE
M109 S205 T0 ; wait for temperature to be reached
M109 S200 T1 ; wait for temperature to be reached
G90 ; use absolute coordinates
G92 E0 ; reset extrusion distance
M82 ; use absolute distances for extrusion
T0 ; change extruder
G92 E0 ; reset extrusion distance
G1 F1800.000 E-1.00000 ; retract
G1 Z1.200 F7800.000 ; move to next layer (0) and lift
G92 E0 ; reset extrusion distance
G1 X46.470 Y57.210 F7800.000 ; move to first skirt point
G1 Z0.200 F7800.000 ; restore layer Z
G1 E1.00000 F1800.000 ; compensate retraction
G1 X47.570 Y56.630 E1.03508 F540.000 ; skirt
G1 X48.760 Y56.270 E1.07014 ; skirt
G1 X50.000 Y56.140 E1.10531 ; skirt
G1 X150.000 Y56.140 E3.92599 ; skirt
G1 X151.240 Y56.270 E3.96115 ; skirt
G1 X152.430 Y56.630 E3.99622 ; skirt
G1 X153.530 Y57.210 E4.03130 ; skirt
G1 X154.500 Y58.000 E4.06658 ; skirt
G1 X155.290 Y58.970 E4.10187 ; skirt
G1 X155.870 Y60.070 E4.13695 ; skirt
G1 X156.230 Y61.260 E4.17202 ; skirt
G1 X156.360 Y62.500 E4.20718 ; skirt
G1 X156.360 Y137.500 E6.32269 ; skirt
G1 X156.230 Y138.740 E6.35786 ; skirt
G1 X155.870 Y139.930 E6.39292 ; skirt
G1 X155.290 Y141.030 E6.42800 ; skirt
G1 X154.500 Y142.000 E6.46329 ; skirt
G1 X153.530 Y142.790 E6.49857 ; skirt
G1 X152.430 Y143.370 E6.53365 ; skirt
G1 X151.240 Y143.730 E6.56872 ; skirt
G1 X150.000 Y143.860 E6.60389 ; skirt
G1 X50.000 Y143.860 E9.42456 ; skirt
G1 X48.760 Y143.730 E9.45973 ; skirt
G1 X47.570 Y143.370 E9.49480 ; skirt
G1 X46.470 Y142.790 E9.52987 ; skirt
G1 X45.500 Y142.000 E9.56516 ; skirt
G1 X44.710 Y141.030 E9.60045 ; skirt
G1 X44.130 Y139.930 E9.63552 ; skirt
G1 X43.770 Y138.740 E9.67059 ; skirt
G1 X43.640 Y137.500 E9.70576 ; skirt
G1 X43.640 Y62.500 E11.82126 ; skirt
G1 X43.770 Y61.260 E11.85643 ; skirt
G1 X44.130 Y60.070 E11.89150 ; skirt
G1 X44.710 Y58.970 E11.92658 ; skirt
G1 X45.500 Y58.000 E11.96186 ; skirt
G1 X46.428 Y57.244 E11.99564 ; skirt
G1 X47.570 Y56.630 F6240.000 E11.64046 ; retract
G1 X48.760 Y56.270 F6240.000 E11.29976 ; retract
G1 X49.682 Y56.173 F6240.000 E11.04564 ; retract
G1 F1800.000 E10.99564 ; retract
G1 Z1.200 F7800.000 ; lift plate during travel
G92 E0 ; reset extrusion distance
G1 X50.200 Y62.700 F7800.000 ; move to first perimeter point
G1 Z0.200 F7800.000 ; restore layer Z
G1 E1.00000 F1800.000 ; compensate retraction
G1 X149.800 Y62.700 E3.80939 F378.000 ; perimeter
G1 X149.800 Y137.300 E5.91361 ; perimeter
G1 X50.200 Y137.300 E8.72300 ; perimeter
G1 X50.200 Y62.754 E10.82571 ; perimeter
G1 X50.557 Y63.057 F7800.000 ; move to first perimeter point
G1 X149.443 Y63.057 E13.61496 F540.000 ; perimeter
G1 X149.443 Y136.943 E15.69904 ; perimeter
G1 X50.557 Y136.943 E18.48829 ; perimeter
G1 X50.557 Y63.111 E20.57085 ; perimeter
G1 X50.826 Y136.694 F7800.000 ; move to first fill point
G1 X50.806 Y136.674 E20.57165 F1080.000 ; fill
G1 X50.806 Y136.169 E20.58590 ; fill
G1 X51.331 Y136.694 E20.60685 ; fill
G1 X51.836 Y136.694 E20.62110 ; fill
G1 X50.806 Y135.664 E20.66221 ; fill
G1 X50.806 Y135.159 E20.67646 ; fill
G1 X52.341 Y136.694 E20.73772 ; fill
G1 X52.846 Y136.694 E20.75197 ; fill
G1 X50.806 Y134.654 E20.83338 ; fill
G1 X50.806 Y134.149 E20.84763 ; fill
G1 X53.351 Y136.694 E20.94920 ; fill
G1 X53.857 Y136.694 E20.96345 ; fill
G1 X50.806 Y133.643 E21.08517 ; fill
G1 X50.806 Y133.138 E21.09942 ; fill
G1 X54.362 Y136.694 E21.24130 ; fill
G1 X54.867 Y136.694 E21.25555 ; fill
G1 X50.806 Y132.633 E21.41758 ; fill
G1 X50.806 Y132.128 E21.43183 ; fill
G1 X55.372 Y136.694 E21.61401 ; fill
G1 X55.877 Y136.694 E21.62826 ; fill
G1 X50.806 Y131.623 E21.83059 ; fill
G1 X50.806 Y131.118 E21.84484 ; fill
G1 X56.382 Y136.694 E22.06733 ; fill
G1 X56.887 Y136.694 E22.08158 ; fill
G1 X50.806 Y130.613 E22.32423 ; fill
G1 X50.806 Y130.108 E22.33848 ; fill
G1 X57.392 Y136.694 E22.60127 ; fill
G1 X57.897 Y136.694 E22.61553 ; fill
G1 X50.806 Y129.603 E22.89848 ; fill
G1 X50.806 Y129.097 E22.91273 ; fill
G1 X58.403 Y136.694 E23.21583 ; fill
G1 X58.908 Y136.694 E23.23008 ; fill
G1 X50.806 Y128.592 E23.55334 ; fill
G1 X50.806 Y128.087 E23.56759 ; fill
G1 X59.413 Y136.694 E23.91100 ; fill
G1 X59.918 Y136.694 E23.92525 ; fill
G1 X50.806 Y127.582 E24.28882 ; fill
G1 X50.806 Y127.077 E24.30307 ; fill
G1 X60.423 Y136.694 E24.68679 ; fill
G1 X60.928 Y136.694 E24.70104 ; fill
G1 X50.806 Y126.572 E25.10491 ; fill
G1 X50.806 Y126.067 E25.11916 ; fill
G1 X61.433 Y136.694 E25.54319 ; fill
G1 X61.938 Y136.694 E25.55744 ; fill
G1 X50.806 Y125.562 E26.00162 ; fill
G1 X50.806 Y125.057 E26.01587 ; fill
G1 X62.443 Y136.694 E26.48020 ; fill
G1 X62.949 Y136.694 E26.49445 ; fill
G1 X50.806 Y124.551 E26.97894 ; fill
G1 X50.806 Y124.046 E26.99319 ; fill
G1 X63.454 Y136.694 E27.49783 ; fill
G1 X63.959 Y136.694 E27.51208 ; fill
G1 X50.806 Y123.541 E28.03688 ; fill
G1 X50.806 Y123.036 E28.05113 ; fill
G1 X64.464 Y136.694 E28.59608 ; fill
G1 X64.969 Y136.694 E28.61033 ; fill
G1 X50.806 Y122.531 E29.17543 ; fill
G1 X50.806 Y122.026 E29.18968 ; fill
G1 X65.474 Y136.694 E29.77494 ; fill
G1 X65.979 Y136.694 E29.78919 ; fill
G1 X50.806 Y121.521 E30.39460 ; fill
G1 X50.806 Y121.016 E30.40885 ; fill
G1 X66.484 Y136.694 E31.03441 ; fill
G1 X66.989 Y136.694 E31.04866 ; fill
G1 X50.806 Y120.511 E31.69438 ; fill
G1 X50.806 Y120.006 E31.70863 ; fill
G1 X67.494 Y136.694 E32.37450 ; fill
G1 X68.000 Y136.694 E32.38875 ; fill
G1 X50.806 Y119.500 E33.07478 ; fill
G1 X50.806 Y118.995 E33.08903 ; fill
G1 X68.505 Y136.694 E33.79521 ; fill
G1 X69.010 Y136.694 E33.80946 ; fill
G1 X50.806 Y118.490 E34.53579 ; fill
G1 X50.806 Y117.985 E34.55004 ; fill
G1 X69.515 Y136.694 E35.29653 ; fill
G1 X70.020 Y136.694 E35.31078 ; fill
G1 X50.806 Y117.480 E36.07742 ; fill
G1 X50.806 Y116.975 E36.09167 ; fill
G1 X70.525 Y136.694 E36.87846 ; fill
G1 X71.030 Y136.694 E36.89271 ; fill
G1 X50.806 Y116.470 E37.69966 ; fill
G1 X50.806 Y115.965 E37.71391 ; fill
G1 X71.535 Y136.694 E38.54101 ; fill
G1 X72.040 Y136.694 E38.55526 ; fill
G1 X50.806 Y115.460 E39.40252 ; fill
G1 X50.806 Y114.954 E39.41677 ; fill
G1 X72.546 Y136.694 E40.28418 ; fill
G1 X73.051 Y136.694 E40.29843 ; fill
G1 X50.806 Y114.449 E41.18599 ; fill
G1 X50.806 Y113.944 E41.20024 ; fill
G1 X73.556 Y136.694 E42.10795 ; fill
G1 X74.061 Y136.694 E42.12221 ; fill
G1 X50.806 Y113.439 E43.05007 ; fill
G1 X50.806 Y112.934 E43.06433 ; fill
G1 X74.566 Y136.694 E44.01235 ; fill
G1 X75.071 Y136.694 E44.02660 ; fill
G1 X50.806 Y112.429 E44.99478 ; fill
G1 X50.806 Y111.924 E45.00903 ; fill
G1 X75.576 Y136.694 E45.99736 ; fill
G1 X76.081 Y136.694 E46.01161 ; fill
G1 X50.806 Y111.419 E47.02009 ; fill
G1 X50.806 Y110.914 E47.03434 ; fill
G1 X76.586 Y136.694 E48.06298 ; fill
G1 X77.092 Y136.694 E48.07723 ; fill
G1 X50.806 Y110.408 E49.12602 ; fill
G1 X50.806 Y109.903 E49.14028 ; fill
G1 X77.597 Y136.694 E50.20922 ; fill
G1 X78.102 Y136.694 E50.22347 ; fill
G1 X50.806 Y109.398 E51.31257 ; fill
G1 X50.806 Y108.893 E51.32682 ; fill
G1 X78.607 Y136.694 E52.43607 ; fill
G1 X79.112 Y136.694 E52.45033 ; fill
G1 X50.806 Y108.388 E53.57973 ; fill
G1 X50.806 Y107.883 E53.59398 ; fill
G1 X79.617 Y136.694 E54.74354 ; fill
G1 X80.122 Y136.694 E54.75779 ; fill
G1 X50.806 Y107.378 E55.92751 ; fill
G1 X50.806 Y106.873 E55.94176 ; fill
G1 X80.627 Y136.694 E57.13163 ; fill
G1 X81.132 Y136.694 E57.14588 ; fill
G1 X50.806 Y106.368 E58.35590 ; fill
G1 X50.806 Y105.862 E58.37015 ; fill
G1 X81.637 Y136.694 E59.60032 ; fill
G1 X82.143 Y136.694 E59.61458 ; fill
G1 X50.806 Y105.357 E60.86490 ; fill
G1 X50.806 Y104.852 E60.87916 ; fill
G1 X82.648 Y136.694 E62.14964 ; fill
G1 X83.153 Y136.694 E62.16389 ; fill
G1 X50.806 Y104.347 E63.45453 ; fill
G1 X50.806 Y103.842 E63.46878 ; fill
G1 X83.658 Y136.694 E64.77957 ; fill
G1 X84.163 Y136.694 E64.79382 ; fill
G1 X50.806 Y103.337 E66.12476 ; fill
G1 X50.806 Y102.832 E66.13901 ; fill
G1 X84.668 Y136.694 E67.49011 ; fill
G1 X85.173 Y136.694 E67.50436 ; fill
G1 X50.806 Y102.327 E68.87561 ; fill
G1 X50.806 Y101.822 E68.88986 ; fill
G1 X85.678 Y136.694 E70.28127 ; fill
G1 X86.183 Y136.694 E70.29552 ; fill
G1 X50.806 Y101.317 E71.70708 ; fill
G1 X50.806 Y100.811 E71.72133 ; fill
G1 X86.689 Y136.694 E73.15304 ; fill
G1 X87.194 Y136.694 E73.16729 ; fill
G1 X50.806 Y100.306 E74.61916 ; fill
G1 X50.806 Y99.801 E74.63341 ; fill
G1 X87.699 Y136.694 E76.10543 ; fill
G1 X88.204 Y136.694 E76.11968 ; fill
G1 X50.806 Y99.296 E77.61185 ; fill
G1 X50.806 Y98.791 E77.62610 ; fill
G1 X88.709 Y136.694 E79.13843 ; fill
G1 X89.214 Y136.694 E79.15268 ; fill
G1 X50.806 Y98.286 E80.68516 ; fill
G1 X50.806 Y97.781 E80.69941 ; fill
G1 X89.719 Y136.694 E82.25205 ; fill
G1 X90.224 Y136.694 E82.26630 ; fill
G1 X50.806 Y97.276 E83.83909 ; fill
G1 X50.806 Y96.771 E83.85334 ; fill
G1 X90.729 Y136.694 E85.44628 ; fill
G1 X91.235 Y136.694 E85.46053 ; fill
G1 X50.806 Y96.265 E87.07363 ; fill
G1 X50.806 Y95.760 E87.08788 ; fill
G1 X91.740 Y136.694 E88.72113 ; fill
G1 X92.245 Y136.694 E88.73538 ; fill
G1 X50.806 Y95.255 E90.38878 ; fill
G1 X50.806 Y94.750 E90.40303 ; fill
G1 X92.750 Y136.694 E92.07659 ; fill
G1 X93.255 Y136.694 E92.09084 ; fill
G1 X50.806 Y94.245 E93.78455 ; fill
G1 X50.806 Y93.740 E93.79880 ; fill
G1 X93.760 Y136.694 E95.51267 ; fill
G1 X94.265 Y136.694 E95.52692 ; fill
G1 X50.806 Y93.235 E97.26094 ; fill
G1 X50.806 Y92.730 E97.27519 ; fill
G1 X94.770 Y136.694 E99.02936 ; fill
G1 X95.275 Y136.694 E99.04361 ; fill
G1 X50.806 Y92.225 E100.81794 ; fill
G1 X50.806 Y91.719 E100.83219 ; fill
G1 X95.780 Y136.694 E102.62667 ; fill
G1 X96.286 Y136.694 E102.64092 ; fill
G1 X50.806 Y91.214 E104.45555 ; fill
G1 X50.806 Y90.709 E104.46980 ; fill
G1 X96.791 Y136.694 E106.30459 ; fill
G1 X97.296 Y136.694 E106.31884 ; fill
G1 X50.806 Y90.204 E108.17378 ; fill
G1 X50.806 Y89.699 E108.18803 ; fill
G1 X97.801 Y136.694 E110.06313 ; fill
G1 X98.306 Y136.694 E110.07738 ; fill
G1 X50.806 Y89.194 E111.97262 ; fill
G1 X50.806 Y88.689 E111.98688 ; fill
G1 X98.811 Y136.694 E113.90228 ; fill
G1 X99.316 Y136.694 E113.91653 ; fill
G1 X50.806 Y88.184 E115.85208 ; fill
G1 X50.806 Y87.679 E115.86633 ; fill
G1 X99.821 Y136.694 E117.82204 ; fill
G1 X100.326 Y136.694 E117.83629 ; fill
G1 X50.806 Y87.174 E119.81216 ; fill
G1 X50.806 Y86.668 E119.82641 ; fill
G1 X100.832 Y136.694 E121.82243 ; fill
G1 X101.337 Y136.694 E121.83668 ; fill
G1 X50.806 Y86.163 E123.85285 ; fill
G1 X50.806 Y85.658 E123.86710 ; fill
G1 X101.842 Y136.694 E125.90342 ; fill
G1 X102.347 Y136.694 E125.91767 ; fill
G1 X50.806 Y85.153 E127.97415 ; fill
G1 X50.806 Y84.648 E127.98840 ; fill
G1 X102.852 Y136.694 E130.06503 ; fill
G1 X103.357 Y136.694 E130.07928 ; fill
G1 X50.806 Y84.143 E132.17607 ; fill
G1 X50.806 Y83.638 E132.19032 ; fill
G1 X103.862 Y136.694 E134.30726 ; fill
G1 X104.367 Y136.694 E134.32151 ; fill
G1 X50.806 Y83.133 E136.45860 ; fill
G1 X50.806 Y82.628 E136.47285 ; fill
G1 X104.872 Y136.694 E138.63010 ; fill
G1 X105.378 Y136.694 E138.64435 ; fill
G1 X50.806 Y82.122 E140.82175 ; fill
G1 X50.806 Y81.617 E140.83600 ; fill
G1 X105.883 Y136.694 E143.03356 ; fill
G1 X106.388 Y136.694 E143.04781 ; fill
G1 X50.806 Y81.112 E145.26551 ; fill
G1 X50.806 Y80.607 E145.27977 ; fill
G1 X106.893 Y136.694 E147.51763 ; fill
G1 X107.398 Y136.694 E147.53188 ; fill
G1 X50.806 Y80.102 E149.78989 ; fill
G1 X50.806 Y79.597 E149.80414 ; fill
G1 X107.903 Y136.694 E152.08231 ; fill
G1 X108.408 Y136.694 E152.09656 ; fill
G1 X50.806 Y79.092 E154.39489 ; fill
G1 X50.806 Y78.587 E154.40914 ; fill
G1 X108.913 Y136.694 E156.72761 ; fill
G1 X109.418 Y136.694 E156.74186 ; fill
G1 X50.806 Y78.082 E159.08049 ; fill
G1 X50.806 Y77.576 E159.09475 ; fill
G1 X109.924 Y136.694 E161.45353 ; fill
G1 X110.429 Y136.694 E161.46778 ; fill
G1 X50.806 Y77.071 E163.84672 ; fill
G1 X50.806 Y76.566 E163.86097 ; fill
G1 X110.934 Y136.694 E166.26006 ; fill
G1 X111.439 Y136.694 E166.27431 ; fill
G1 X50.806 Y76.061 E168.69356 ; fill
G1 X50.806 Y75.556 E168.70781 ; fill
G1 X111.944 Y136.694 E171.14721 ; fill
G1 X112.449 Y136.694 E171.16146 ; fill
G1 X50.806 Y75.051 E173.62101 ; fill
G1 X50.806 Y74.546 E173.63526 ; fill
G1 X112.954 Y136.694 E176.11497 ; fill
G1 X113.459 Y136.694 E176.12922 ; fill
G1 X50.806 Y74.041 E178.62908 ; fill
G1 X50.806 Y73.536 E178.64333 ; fill
G1 X113.964 Y136.694 E181.16334 ; fill
G1 X114.469 Y136.694 E181.17759 ; fill
G1 X50.806 Y73.031 E183.71776 ; fill
G1 X50.806 Y72.525 E183.73201 ; fill
G1 X114.975 Y136.694 E186.29233 ; fill
G1 X115.480 Y136.694 E186.30658 ; fill
G1 X50.806 Y72.020 E188.88706 ; fill
G1 X50.806 Y71.515 E188.90131 ; fill
G1 X115.985 Y136.694 E191.50194 ; fill
G1 X116.490 Y136.694 E191.51619 ; fill
G1 X50.806 Y71.010 E194.13697 ; fill
G1 X50.806 Y70.505 E194.15122 ; fill
G1 X116.995 Y136.694 E196.79216 ; fill
G1 X117.500 Y136.694 E196.80641 ; fill
G1 X50.806 Y70.000 E199.46750 ; fill
G1 X50.806 Y69.495 E199.48175 ; fill
G1 X118.005 Y136.694 E202.16299 ; fill
G1 X118.510 Y136.694 E202.17724 ; fill
G1 X50.806 Y68.990 E204.87864 ; fill
G1 X50.806 Y68.485 E204.89289 ; fill
G1 X119.015 Y136.694 E207.61444 ; fill
G1 X119.521 Y136.694 E207.62869 ; fill
G1 X50.806 Y67.979 E210.37040 ; fill
G1 X50.806 Y67.474 E210.38465 ; fill
G1 X120.026 Y136.694 E213.14650 ; fill
G1 X120.531 Y136.694 E213.16076 ; fill
G1 X50.806 Y66.969 E215.94277 ; fill
G1 X50.806 Y66.464 E215.95702 ; fill
G1 X121.036 Y136.694 E218.75918 ; fill
G1 X121.541 Y136.694 E218.77343 ; fill
G1 X50.806 Y65.959 E221.59575 ; fill
G1 X50.806 Y65.454 E221.61001 ; fill
G1 X122.046 Y136.694 E224.45248 ; fill
G1 X122.551 Y136.694 E224.46673 ; fill
G1 X50.806 Y64.949 E227.32936 ; fill
G1 X50.806 Y64.444 E227.34361 ; fill
G1 X123.056 Y136.694 E230.22639 ; fill
G1 X123.561 Y136.694 E230.24064 ; fill
G1 X50.806 Y63.939 E233.14357 ; fill
G1 X50.806 Y63.433 E233.15782 ; fill
G1 X124.067 Y136.694 E236.08091 ; fill
G1 X124.572 Y136.694 E236.09516 ; fill
G1 X51.184 Y63.306 E239.02334 ; fill
G1 X51.689 Y63.306 E239.03759 ; fill
G1 X125.077 Y136.694 E241.96577 ; fill
G1 X125.582 Y136.694 E241.98002 ; fill
G1 X52.194 Y63.306 E244.90819 ; fill
G1 X52.699 Y63.306 E244.92244 ; fill
G1 X126.087 Y136.694 E247.85062 ; fill
G1 X126.592 Y136.694 E247.86487 ; fill
G1 X53.204 Y63.306 E250.79305 ; fill
G1 X53.709 Y63.306 E250.80730 ; fill
G1 X127.097 Y136.694 E253.73548 ; fill
G1 X127.602 Y136.694 E253.74973 ; fill
G1 X54.214 Y63.306 E256.67790 ; fill
G1 X54.719 Y63.306 E256.69215 ; fill
G1 X128.107 Y136.694 E259.62033 ; fill
G1 X128.612 Y136.694 E259.63458 ; fill
G1 X55.224 Y63.306 E262.56276 ; fill
G1 X55.729 Y63.306 E262.57701 ; fill
G1 X129.118 Y136.694 E265.50519 ; fill
G1 X129.623 Y136.694 E265.51944 ; fill
G1 X56.235 Y63.306 E268.44761 ; fill
G1 X56.740 Y63.306 E268.46186 ; fill
G1 X130.128 Y136.694 E271.39004 ; fill
G1 X130.633 Y136.694 E271.40429 ; fill
G1 X57.245 Y63.306 E274.33247 ; fill
G1 X57.750 Y63.306 E274.34672 ; fill
G1 X131.138 Y136.694 E277.27490 ; fill
G1 X131.643 Y136.694 E277.28915 ; fill
G1 X58.255 Y63.306 E280.21732 ; fill
G1 X58.760 Y63.306 E280.23157 ; fill
G1 X132.148 Y136.694 E283.15975 ; fill
G1 X132.653 Y136.694 E283.17400 ; fill
G1 X59.265 Y63.306 E286.10218 ; fill
G1 X59.770 Y63.306 E286.11643 ; fill
G1 X133.158 Y136.694 E289.04460 ; fill
G1 X133.664 Y136.694 E289.05886 ; fill
