; generated by Slic3r 1.1.4 on 2014-06-17 at 07:56:39

; perimeters extrusion width = 0.20mm
; infill extrusion width = 0.21mm
; solid infill extrusion width = 0.21mm
; top infill extrusion width = 0.21mm

; perimeters extrusion width = 0.20mm
; infill extrusion width = 0.21mm
; solid infill extrusion width = 0.21mm
; top infill extrusion width = 0.21mm

G21 ; set units to millimeters
M107 ; disable fan
M104 S200 T0 ; set temperature
G28


;CIRCUIT_POST_PROCESSOR: RETRACT_LENGTH = ,1,15
;CIRCUIT_POST_PROCESSOR: RETRACT_LENGTH_TOOLCHANGE = ,10,10
;CIRCUIT_POST_PROCESSOR: RETRACT_LIFT = ,1,3
;	Found 2 retract speeds: 1800, 180
;CIRCUIT_POST_PROCESSOR: RETRACT_SPEED = ,30,3
;CIRCUIT_POST_PROCESSOR: RETRACT_RESTART_EXTRA = ,0,100
;CIRCUIT_POST_PROCESSOR: RETRACT_RESTART_EXTRA_TOOLCHANGE = ,0,0
;	FOUND START OF G CODE
;CIRCUIT_POST_PROCESSOR: BEGIN G CODE
M109 S200 T0 ; wait for temperature to be reached
G90 ; use absolute coordinates
G92 E0 ; reset extrusion distance
M82 ; use absolute distances for extrusion
T0 ; change extruder
G92 E0 ; reset extrusion distance - PrusaCircuitConverterScript
G92 E0 ; reset extrusion distance
G1 F1800.000 E-1.00000 ; retract
; move to next layer: 0 detected. Resetting Extrusion distance.
G92 E0 ; reset extrusion distance - PrusaCircuitConverterScript
G1  Z1.200 F7800.000 ; move to next layer (0) and lift
G92 E0 ; reset extrusion distance
G1 X46.923 Y56.937 F7800.000 ; move to first skirt point
G1  Z0.200 F7800.000 ; restore layer Z
G1 E1.00000 F1800.000 ; compensate retraction
G1 X50.000 Y56.143 E1.10849 F1080.000 ; skirt
G1 X150.000 Y56.143 E4.52299 ; skirt
G1 X152.211 Y56.540 E4.59969 ; skirt
G1 X154.146 Y57.681 E4.67639 ; skirt
G1 X155.563 Y59.423 E4.75308 ; skirt
G1 X156.357 Y62.500 E4.86157 ; skirt
G1 X156.357 Y137.500 E7.42245 ; skirt
G1 X155.960 Y139.711 E7.49915 ; skirt
G1 X154.819 Y141.646 E7.57584 ; skirt
G1 X153.076 Y143.063 E7.65254 ; skirt
G1 X150.000 Y143.857 E7.76103 ; skirt
G1 X50.000 Y143.857 E11.17553 ; skirt
G1 X47.789 Y143.460 E11.25223 ; skirt
G1 X45.854 Y142.319 E11.32893 ; skirt
G1 X44.437 Y140.577 E11.40563 ; skirt
G1 X43.643 Y137.500 E11.51412 ; skirt
G1 X43.643 Y62.500 E14.07499 ; skirt
G1 X44.040 Y60.289 E14.15169 ; skirt
G1 X45.181 Y58.354 E14.22839 ; skirt
G1 X46.900 Y56.956 E14.30406 ; skirt
G1 X50.000 Y56.143 F6240.000 E13.42588 ; 1800
G1 X50.262 Y56.143 F6240.000 E13.35406 ; 1800
G1 F1800.000 E13.30406 ; retract
G1  Z1.200 F7800.000 ; lift plate during travel
G92 E0 ; reset extrusion distance
;G1 X149.800 Y137.300 F7800.000 ; move to first perimeter point
G1 X149.800 Y137.300 F7800.000 ; move to first 	; move to first (last) fill point
G1  Z0.200 F7800.000 ; restore layer Z
G1 E1.00000 F1800.000 ; compensate retraction
G1 X50.200 Y137.300 E4.40084 F126.000 ; perimeter
G1 X50.200 Y62.700 E6.94806 ; perimeter
G1 X149.800 Y62.700 E10.34890 ; perimeter
G1 X149.800 Y137.270 E12.89509 ; perimeter
;G1 X149.443 Y136.943 F7800.000 ; move to first perimeter point
G1 X149.443 Y136.943 F7800.000 ; move to first 	; move to first (last) fill point
G1 X50.557 Y136.943 E16.27155 F180.000 ; perimeter
G1 X50.557 Y63.057 E18.79438 ; perimeter
G1 X149.443 Y63.057 E22.17084 ; perimeter
G1 X149.443 Y136.913 E24.69264 ; perimeter
;G1 X149.164 Y63.296 F7800.000 ; move to first fill point
G1 X149.164 Y63.296 F7800.000 	; move to first (last) fill point
G1 X149.204 Y63.336 E24.69457 F1080.000 ; fill
G1 X149.204 Y63.841 E24.71182 ; fill
G1 X148.659 Y63.296 E24.73814 ; fill
G1 X148.154 Y63.296 E24.75539 ; fill
G1 X149.204 Y64.346 E24.80610 ; fill
G1 X149.204 Y64.851 E24.82335 ; fill
G1 X147.649 Y63.296 E24.89845 ; fill
G1 X147.144 Y63.296 E24.91570 ; fill
G1 X149.204 Y65.356 E25.01520 ; fill
G1 X149.204 Y65.861 E25.03244 ; fill
G1 X146.639 Y63.296 E25.15633 ; fill
G1 X146.133 Y63.296 E25.17357 ; fill
G1 X149.204 Y66.367 E25.32185 ; fill
G1 X149.204 Y66.872 E25.33910 ; fill
G1 X145.628 Y63.296 E25.51176 ; fill
G1 X145.123 Y63.296 E25.52901 ; fill
G1 X149.204 Y67.377 E25.72607 ; fill
G1 X149.204 Y67.882 E25.74332 ; fill
G1 X144.618 Y63.296 E25.96476 ; fill
G1 X144.113 Y63.296 E25.98201 ; fill
G1 X149.204 Y68.387 E26.22785 ; fill
G1 X149.204 Y68.892 E26.24510 ; fill
G1 X143.608 Y63.296 E26.51533 ; fill
G1 X143.103 Y63.296 E26.53257 ; fill
G1 X149.204 Y69.397 E26.82719 ; fill
G1 X149.204 Y69.902 E26.84444 ; fill
G1 X142.598 Y63.296 E27.16345 ; fill
G1 X142.093 Y63.296 E27.18070 ; fill
G1 X149.204 Y70.407 E27.52410 ; fill
G1 X149.204 Y70.913 E27.54135 ; fill
G1 X141.587 Y63.296 E27.90914 ; fill
G1 X141.082 Y63.296 E27.92639 ; fill
G1 X149.204 Y71.418 E28.31857 ; fill
G1 X149.204 Y71.923 E28.33582 ; fill
G1 X140.577 Y63.296 E28.75239 ; fill
G1 X140.072 Y63.296 E28.76964 ; fill
G1 X149.204 Y72.428 E29.21060 ; fill
G1 X149.204 Y72.933 E29.22785 ; fill
G1 X139.567 Y63.296 E29.69321 ; fill
G1 X139.062 Y63.296 E29.71045 ; fill
G1 X149.204 Y73.438 E30.20020 ; fill
G1 X149.204 Y73.943 E30.21745 ; fill
G1 X138.557 Y63.296 E30.73158 ; fill
G1 X138.052 Y63.296 E30.74883 ; fill
G1 X149.204 Y74.448 E31.28736 ; fill
G1 X149.204 Y74.953 E31.30461 ; fill
G1 X137.547 Y63.296 E31.86752 ; fill
G1 X137.041 Y63.296 E31.88477 ; fill
G1 X149.204 Y75.459 E32.47208 ; fill
G1 X149.204 Y75.964 E32.48933 ; fill
G1 X136.536 Y63.296 E33.10103 ; fill
G1 X136.031 Y63.296 E33.11827 ; fill
G1 X149.204 Y76.469 E33.75437 ; fill
G1 X149.204 Y76.974 E33.77161 ; fill
G1 X135.526 Y63.296 E34.43209 ; fill
G1 X135.021 Y63.296 E34.44934 ; fill
G1 X149.204 Y77.479 E35.13421 ; fill
G1 X149.204 Y77.984 E35.15146 ; fill
G1 X134.516 Y63.296 E35.86072 ; fill
G1 X134.011 Y63.296 E35.87797 ; fill
G1 X149.204 Y78.489 E36.61162 ; fill
G1 X149.204 Y78.994 E36.62887 ; fill
G1 X133.506 Y63.296 E37.38692 ; fill
G1 X133.001 Y63.296 E37.40416 ; fill
G1 X149.204 Y79.499 E38.18660 ; fill
G1 X149.204 Y80.004 E38.20384 ; fill
G1 X132.496 Y63.296 E39.01067 ; fill
G1 X131.990 Y63.296 E39.02792 ; fill
G1 X149.204 Y80.510 E39.85913 ; fill
G1 X149.204 Y81.015 E39.87638 ; fill
G1 X131.485 Y63.296 E40.73199 ; fill
G1 X130.980 Y63.296 E40.74924 ; fill
G1 X149.204 Y81.520 E41.62923 ; fill
G1 X149.204 Y82.025 E41.64648 ; fill
G1 X130.475 Y63.296 E42.55087 ; fill
G1 X129.970 Y63.296 E42.56812 ; fill
G1 X149.204 Y82.530 E43.49690 ; fill
G1 X149.204 Y83.035 E43.51414 ; fill
G1 X129.465 Y63.296 E44.46731 ; fill
G1 X128.960 Y63.296 E44.48456 ; fill
G1 X149.204 Y83.540 E45.46212 ; fill
G1 X149.204 Y84.045 E45.47937 ; fill
G1 X128.455 Y63.296 E46.48132 ; fill
G1 X127.950 Y63.296 E46.49857 ; fill
G1 X149.204 Y84.550 E47.52491 ; fill
G1 X149.204 Y85.056 E47.54216 ; fill
G1 X127.444 Y63.296 E48.59289 ; fill
G1 X126.939 Y63.296 E48.61014 ; fill
G1 X149.204 Y85.561 E49.68526 ; fill
G1 X149.204 Y86.066 E49.70251 ; fill
G1 X126.434 Y63.296 E50.80202 ; fill
G1 X125.929 Y63.296 E50.81927 ; fill
G1 X149.204 Y86.571 E51.94318 ; fill
G1 X149.204 Y87.076 E51.96042 ; fill
G1 X125.424 Y63.296 E53.10872 ; fill
G1 X124.919 Y63.296 E53.12597 ; fill
G1 X149.204 Y87.581 E54.29865 ; fill
G1 X149.204 Y88.086 E54.31590 ; fill
G1 X124.414 Y63.296 E55.51298 ; fill
G1 X123.909 Y63.296 E55.53023 ; fill
G1 X149.204 Y88.591 E56.75169 ; fill
G1 X149.204 Y89.096 E56.76894 ; fill
G1 X123.404 Y63.296 E58.01480 ; fill
G1 X122.899 Y63.296 E58.03205 ; fill
G1 X149.204 Y89.601 E59.30230 ; fill
G1 X149.204 Y90.107 E59.31955 ; fill
G1 X122.393 Y63.296 E60.61419 ; fill
G1 X121.888 Y63.296 E60.63143 ; fill
G1 X149.204 Y90.612 E61.95046 ; fill
G1 X149.204 Y91.117 E61.96771 ; fill
G1 X121.383 Y63.296 E63.31113 ; fill
G1 X120.878 Y63.296 E63.32838 ; fill
G1 X149.204 Y91.622 E64.69619 ; fill
G1 X149.204 Y92.127 E64.71344 ; fill
G1 X120.373 Y63.296 E66.10564 ; fill
G1 X119.868 Y63.296 E66.12289 ; fill
G1 X149.204 Y92.632 E67.53949 ; fill
G1 X149.204 Y93.137 E67.55673 ; fill
G1 X119.363 Y63.296 E68.99772 ; fill
G1 X118.858 Y63.296 E69.01497 ; fill
G1 X149.204 Y93.642 E70.48034 ; fill
G1 X149.204 Y94.147 E70.49759 ; fill
G1 X118.353 Y63.296 E71.98736 ; fill
G1 X117.847 Y63.296 E72.00460 ; fill
G1 X149.204 Y94.653 E73.51876 ; fill
G1 X149.204 Y95.158 E73.53601 ; fill
G1 X117.342 Y63.296 E75.07456 ; fill
G1 X116.837 Y63.296 E75.09180 ; fill
G1 X149.204 Y95.663 E76.65474 ; fill
G1 X149.204 Y96.168 E76.67199 ; fill
G1 X116.332 Y63.296 E78.25932 ; fill
G1 X115.827 Y63.296 E78.27656 ; fill
G1 X149.204 Y96.673 E79.88829 ; fill
G1 X149.204 Y97.178 E79.90553 ; fill
G1 X115.322 Y63.296 E81.54164 ; fill
G1 X114.817 Y63.296 E81.55889 ; fill
G1 X149.204 Y97.683 E83.21939 ; fill
G1 X149.204 Y98.188 E83.23664 ; fill
G1 X114.312 Y63.296 E84.92153 ; fill
G1 X113.807 Y63.296 E84.93878 ; fill
G1 X149.204 Y98.693 E86.64806 ; fill
G1 X149.204 Y99.199 E86.66531 ; fill
G1 X113.301 Y63.296 E88.39898 ; fill
G1 X112.796 Y63.296 E88.41623 ; fill
G1 X149.204 Y99.704 E90.17430 ; fill
G1 X149.204 Y100.209 E90.19154 ; fill
G1 X112.291 Y63.296 E91.97400 ; fill
G1 X111.786 Y63.296 E91.99125 ; fill
G1 X149.204 Y100.714 E93.79809 ; fill
G1 X149.204 Y101.219 E93.81534 ; fill
G1 X111.281 Y63.296 E95.64658 ; fill
G1 X110.776 Y63.296 E95.66382 ; fill
G1 X149.204 Y101.724 E97.51945 ; fill
G1 X149.204 Y102.229 E97.53670 ; fill
G1 X110.271 Y63.296 E99.41672 ; fill
G1 X109.766 Y63.296 E99.43396 ; fill
G1 X149.204 Y102.734 E101.33837 ; fill
G1 X149.204 Y103.239 E101.35562 ; fill
G1 X109.261 Y63.296 E103.28442 ; fill
G1 X108.756 Y63.296 E103.30167 ; fill
G1 X149.204 Y103.744 E105.25486 ; fill
G1 X149.204 Y104.250 E105.27211 ; fill
G1 X108.250 Y63.296 E107.24969 ; fill
G1 X107.745 Y63.296 E107.26693 ; fill
G1 X149.204 Y104.755 E109.26891 ; fill
G1 X149.204 Y105.260 E109.28615 ; fill
G1 X107.240 Y63.296 E111.31252 ; fill
G1 X106.735 Y63.296 E111.32976 ; fill
G1 X149.204 Y105.765 E113.38052 ; fill
G1 X149.204 Y106.270 E113.39776 ; fill
G1 X106.230 Y63.296 E115.47291 ; fill
G1 X105.725 Y63.296 E115.49016 ; fill
G1 X149.204 Y106.775 E117.58969 ; fill
G1 X149.204 Y107.280 E117.60694 ; fill
G1 X105.220 Y63.296 E119.73087 ; fill
G1 X104.715 Y63.296 E119.74811 ; fill
G1 X149.204 Y107.785 E121.89643 ; fill
G1 X149.204 Y108.290 E121.91368 ; fill
G1 X104.210 Y63.296 E124.08638 ; fill
G1 X103.704 Y63.296 E124.10363 ; fill
G1 X149.204 Y108.796 E126.30073 ; fill
G1 X149.204 Y109.301 E126.31798 ; fill
G1 X103.199 Y63.296 E128.53947 ; fill
G1 X102.694 Y63.296 E128.55671 ; fill
G1 X149.204 Y109.806 E130.80259 ; fill
G1 X149.204 Y110.311 E130.81984 ; fill
G1 X102.189 Y63.296 E133.09011 ; fill
G1 X101.684 Y63.296 E133.10736 ; fill
G1 X149.204 Y110.816 E135.40202 ; fill
G1 X149.204 Y111.321 E135.41927 ; fill
G1 X101.179 Y63.296 E137.73832 ; fill
G1 X100.674 Y63.296 E137.75556 ; fill
G1 X149.204 Y111.826 E140.09901 ; fill
G1 X149.204 Y112.331 E140.11625 ; fill
G1 X100.169 Y63.296 E142.48409 ; fill
G1 X99.664 Y63.296 E142.50133 ; fill
G1 X149.204 Y112.836 E144.89356 ; fill
G1 X149.204 Y113.341 E144.91081 ; fill
G1 X99.159 Y63.296 E147.32742 ; fill
G1 X98.653 Y63.296 E147.34467 ; fill
G1 X149.204 Y113.847 E149.78567 ; fill
G1 X149.204 Y114.352 E149.80292 ; fill
G1 X98.148 Y63.296 E152.26832 ; fill
G1 X97.643 Y63.296 E152.28556 ; fill
G1 X149.204 Y114.857 E154.77535 ; fill
G1 X149.204 Y115.362 E154.79260 ; fill
G1 X97.138 Y63.296 E157.30678 ; fill
G1 X96.633 Y63.296 E157.32402 ; fill
G1 X149.204 Y115.867 E159.86259 ; fill
G1 X149.204 Y116.372 E159.87984 ; fill
G1 X96.128 Y63.296 E162.44280 ; fill
G1 X95.623 Y63.296 E162.46005 ; fill
G1 X149.204 Y116.877 E165.04740 ; fill
G1 X149.204 Y117.382 E165.06464 ; fill
G1 X95.118 Y63.296 E167.67639 ; fill
G1 X94.613 Y63.296 E167.69363 ; fill
G1 X149.204 Y117.887 E170.32976 ; fill
G1 X149.204 Y118.393 E170.34701 ; fill
G1 X94.107 Y63.296 E173.00753 ; fill
G1 X93.602 Y63.296 E173.02478 ; fill
G1 X149.204 Y118.898 E175.70969 ; fill
G1 X149.204 Y119.403 E175.72694 ; fill
G1 X93.097 Y63.296 E178.43624 ; fill
G1 X92.592 Y63.296 E178.45349 ; fill
G1 X149.204 Y119.908 E181.18719 ; fill
G1 X149.204 Y120.413 E181.20443 ; fill
G1 X92.087 Y63.296 E183.96252 ; fill
G1 X91.582 Y63.296 E183.97977 ; fill
G1 X149.204 Y120.918 E186.76224 ; fill
G1 X149.204 Y121.423 E186.77949 ; fill
G1 X91.077 Y63.296 E189.58636 ; fill
G1 X90.572 Y63.296 E189.60360 ; fill
G1 X149.204 Y121.928 E192.43486 ; fill
G1 X149.204 Y122.433 E192.45211 ; fill
G1 X90.067 Y63.296 E195.30776 ; fill
G1 X89.561 Y63.296 E195.32500 ; fill
G1 X149.204 Y122.939 E198.20504 ; fill
G1 X149.204 Y123.444 E198.22229 ; fill
G1 X89.056 Y63.296 E201.12672 ; fill
G1 X88.551 Y63.296 E201.14397 ; fill
G1 X149.204 Y123.949 E204.07279 ; fill
G1 X149.204 Y124.454 E204.09003 ; fill
G1 X88.046 Y63.296 E207.04325 ; fill
G1 X87.541 Y63.296 E207.06049 ; fill
G1 X149.204 Y124.959 E210.03809 ; fill
G1 X149.204 Y125.464 E210.05534 ; fill
G1 X87.036 Y63.296 E213.05733 ; fill
G1 X86.531 Y63.296 E213.07458 ; fill
G1 X149.204 Y125.969 E216.10097 ; fill
G1 X149.204 Y126.474 E216.11821 ; fill
G1 X86.026 Y63.296 E219.16899 ; fill
G1 X85.521 Y63.296 E219.18623 ; fill
G1 X149.204 Y126.979 E222.26140 ; fill
G1 X149.204 Y127.484 E222.27865 ; fill
G1 X85.016 Y63.296 E225.37820 ; fill
G1 X84.510 Y63.296 E225.39545 ; fill
G1 X149.204 Y127.990 E228.51940 ; fill
G1 X149.204 Y128.495 E228.53664 ; fill
G1 X84.005 Y63.296 E231.68498 ; fill
G1 X83.500 Y63.296 E231.70223 ; fill
G1 X149.204 Y129.000 E234.87496 ; fill
G1 X149.204 Y129.505 E234.89220 ; fill
G1 X82.995 Y63.296 E238.08932 ; fill
G1 X82.490 Y63.296 E238.10657 ; fill
G1 X149.204 Y130.010 E241.32808 ; fill
G1 X149.204 Y130.515 E241.34532 ; fill
G1 X81.985 Y63.296 E244.59123 ; fill
G1 X81.480 Y63.296 E244.60847 ; fill
G1 X149.204 Y131.020 E247.87876 ; fill
G1 X149.204 Y131.525 E247.89601 ; fill
G1 X80.975 Y63.296 E251.19069 ; fill
G1 X80.470 Y63.296 E251.20794 ; fill
G1 X149.204 Y132.030 E254.52701 ; fill
G1 X149.204 Y132.536 E254.54426 ; fill
G1 X79.964 Y63.296 E257.88772 ; fill
G1 X79.459 Y63.296 E257.90497 ; fill
G1 X149.204 Y133.041 E261.27282 ; fill
G1 X149.204 Y133.546 E261.29007 ; fill
G1 X78.954 Y63.296 E264.68232 ; fill
G1 X78.449 Y63.296 E264.69956 ; fill
G1 X149.204 Y134.051 E268.11620 ; fill
G1 X149.204 Y134.556 E268.13344 ; fill
G1 X77.944 Y63.296 E271.57447 ; fill
G1 X77.439 Y63.296 E271.59172 ; fill
G1 X149.204 Y135.061 E275.05714 ; fill
G1 X149.204 Y135.566 E275.07438 ; fill
G1 X76.934 Y63.296 E278.56419 ; fill
G1 X76.429 Y63.296 E278.58144 ; fill
G1 X149.204 Y136.071 E282.09564 ; fill
G1 X149.204 Y136.576 E282.11288 ; fill
G1 X75.924 Y63.296 E285.65147 ; fill
G1 X75.418 Y63.296 E285.66872 ; fill
G1 X148.827 Y136.704 E289.21347 ; fill
G1 X148.322 Y136.704 E289.23072 ; fill
G1 X74.913 Y63.296 E292.77547 ; fill
G1 X74.408 Y63.296 E292.79272 ; fill
G1 X147.816 Y136.704 E296.33747 ; fill
G1 X147.311 Y136.704 E296.35472 ; fill
G1 X73.903 Y63.296 E299.89948 ; fill
G1 X73.398 Y63.296 E299.91672 ; fill
G1 X146.806 Y136.704 E303.46148 ; fill
G1 X146.301 Y136.704 E303.47872 ; fill
G1 X72.893 Y63.296 E307.02348 ; fill
G1 X72.388 Y63.296 E307.04072 ; fill
G1 X145.796 Y136.704 E310.58548 ; fill
G1 X145.291 Y136.704 E310.60273 ; fill
G1 X71.883 Y63.296 E314.14748 ; fill
G1 X71.378 Y63.296 E314.16473 ; fill
G1 X144.786 Y136.704 E317.70948 ; fill
G1 X144.281 Y136.704 E317.72673 ; fill
G1 X70.873 Y63.296 E321.27148 ; fill
G1 X70.367 Y63.296 E321.28873 ; fill
G1 X143.776 Y136.704 E324.83348 ; fill
G1 X143.270 Y136.704 E324.85073 ; fill
G1 X69.862 Y63.296 E328.39548 ; fill
G1 X69.357 Y63.296 E328.41273 ; fill
G1 X142.765 Y136.704 E331.95748 ; fill
G1 X142.260 Y136.704 E331.97473 ; fill
G1 X68.852 Y63.296 E335.51949 ; fill
G1 X68.347 Y63.296 E335.53673 ; fill
G1 X141.755 Y136.704 E339.08149 ; fill
G1 X141.250 Y136.704 E339.09873 ; fill
G1 X67.842 Y63.296 E342.64349 ; fill
G1 X67.337 Y63.296 E342.66073 ; fill
G1 X140.745 Y136.704 E346.20549 ; fill
G1 X140.240 Y136.704 E346.22273 ; fill
G1 X66.832 Y63.296 E349.76749 ; fill
G1 X66.327 Y63.296 E349.78474 ; fill
G1 X139.735 Y136.704 E353.32949 ; fill
G1 X139.230 Y136.704 E353.34674 ; fill
G1 X65.821 Y63.296 E356.89149 ; fill
G1 X65.316 Y63.296 E356.90874 ; fill
G1 X138.724 Y136.704 E360.45349 ; fill
G1 X138.219 Y136.704 E360.47074 ; fill
G1 X64.811 Y63.296 E364.01549 ; fill
G1 X64.306 Y63.296 E364.03274 ; fill
